(Exported by FreeCAD)
(Post Processor: refactored_linuxcnc_post)
(Cam File: enggar_milling_template.FCStd)
(Output Time: 2025-04-12 12:44:06.995126)
(Begin preamble)
G90
G54
G64
(G50)
G17
G40
G80
G94
G49
G20
(Begin operation: Fixture)
(Machine units: in/min)
G54
(Finish operation: Fixture)
(Begin operation: T005: Face Mill - Ø38)
(Machine units: in/min)
(T005: Face Mill - Ø38)
(Begin toolchange)
M5
M6 T5
G43 H5
M3 S3577
(Finish operation: T005: Face Mill - Ø38)
(Begin operation: face_top_side)
(Machine units: in/min)
(Coolant On: Flood)
M8
(MillFace)
G0 Z0.2362
G0 X1.9787 Y1.8751
G0 Z0.1575
G1 Z0.0000 F21.4045
G1 X1.9787 Y1.1271 F42.8089
G1 X1.9787 Y-1.1271 Z0.0000 F42.8089
G1 X1.9787 Y-1.8751 F42.8089
G0 Z0.2362
G0 X1.2307 Y-1.8751
G0 Z0.1575
G1 Z0.0000 F21.4045
G1 X1.2307 Y-1.1271 F42.8089
G1 X1.2307 Y1.1271 Z0.0000 F42.8089
G1 X1.2307 Y1.8751 F42.8089
G0 Z0.2362
G0 X0.4827 Y1.8751
G0 Z0.1575
G1 Z0.0000 F21.4045
G1 X0.4827 Y1.1271 F42.8089
G1 X0.4827 Y-1.1055 Z0.0000 F42.8089
G1 X0.4827 Y-1.8535 F42.8089
G0 Z0.2362
G0 X-0.2654 Y-1.7457
G0 Z0.1575
G1 Z0.0000 F21.4045
G1 X-0.2654 Y-0.9976 F42.8089
G1 X-0.2654 Y1.1271 Z0.0000 F42.8089
G1 X-0.2654 Y1.8751 F42.8089
G0 Z0.2362
G0 X-1.0134 Y1.8751
G0 Z0.1575
G1 Z0.0000 F21.4045
G1 X-1.0134 Y1.1271 F42.8089
G1 X-1.0134 Y-1.1278 Z0.0000 F42.8089
G1 X-1.0134 Y-1.8758 F42.8089
G0 Z0.2362
G0 X-1.7614 Y-1.8756
G0 Z0.1575
G1 Z0.0000 F21.4045
G1 X-1.7614 Y-1.1275 F42.8089
G1 X-1.7614 Y1.1271 Z0.0000 F42.8089
G1 X-1.7614 Y1.8751 F42.8089
G0 Z0.2362
(Finish operation: face_top_side)
(Coolant Off: Flood)
M9
(Begin operation: T019: HSAL End Mill - Square End - Ø3/8” )
(Machine units: in/min)
(T019: HSAL End Mill - Square End - Ø3/8” )
(Begin toolchange)
M5
M6 T19
G43 H19
M3 S4344
(Finish operation: T019: HSAL End Mill - Square End - Ø3/8” )
(Begin operation: adaptive_outside_1)
(Machine units: in/min)
(Coolant On: Flood)
M8
(adaptive_outside_1)
G0 Z0.2362
G0 X2.1988 Y-1.1353 Z0.2362
G1 X2.1988 Y-1.1353 Z-0.4902 F15.8842
(Adaptive - depth: -12.450000)
G1 X2.1988 Y-1.1353 F31.7683
G1 X2.1965 Y-1.1344 F31.7683
G1 X2.1944 Y-1.1329 F31.7683
G1 X2.1925 Y-1.1310 F31.7683
G1 X2.1892 Y-1.1303 F31.7683
G1 X2.1844 Y-1.1284 F31.7683
G1 X2.1745 Y-1.1259 F31.7683
G1 X2.1651 Y-1.1241 F31.7683
G1 X2.1100 Y-1.1186 F31.7683
G1 X2.1001 Y-1.1193 F31.7683
G1 X2.0903 Y-1.1212 F31.7683
G1 X2.0579 Y-1.1358 F31.7683
G1 X2.0402 Y-1.1410 F31.7683
G1 X2.0087 Y-1.1464 F31.7683
G1 X0.5855 Y-1.1469 F31.7683
G1 X0.5343 Y-1.1405 F31.7683
G1 X0.4418 Y-1.1191 F31.7683
G1 X0.3513 Y-1.1132 F31.7683
G1 X0.2725 Y-1.1126 F31.7683
G1 X0.0678 Y-1.1134 F31.7683
G1 X-0.1515 Y-1.1109 F31.7683
G1 X-0.2140 Y-1.1118 F31.7683
G1 X-0.2921 Y-1.1117 F31.7683
G1 X-0.4192 Y-1.1072 F31.7683
G1 X-0.4395 Y-1.1100 F31.7683
G1 X-0.4797 Y-1.1262 F31.7683
G1 X-0.5221 Y-1.1382 F31.7683
G1 X-0.5498 Y-1.1432 F31.7683
G1 X-0.5849 Y-1.1468 F31.7683
G1 X-2.0022 Y-1.1469 F31.7683
G1 X-2.0336 Y-1.1427 F31.7683
G1 X-2.0594 Y-1.1352 F31.7683
G1 X-2.0893 Y-1.1219 F31.7683
G1 X-2.1089 Y-1.1096 F31.7683
G1 X-2.1244 Y-1.0979 F31.7683
G1 X-2.1463 Y-1.0764 F31.7683
G1 X-2.1683 Y-1.0458 F31.7683
G1 X-2.1750 Y-1.0336 F31.7683
G1 X-2.1859 Y-1.0078 F31.7683
G1 X-2.1934 Y-0.9802 F31.7683
G1 X-2.2180 Y0.8526 F31.7683
G1 X-2.2127 Y0.8784 F31.7683
G1 X-2.1977 Y0.9208 F31.7683
G1 X-2.1973 Y0.9226 F31.7683
G1 X-2.1966 Y0.9558 F31.7683
G1 X-2.1938 Y0.9780 F31.7683
G1 X-2.1912 Y0.9891 F31.7683
G1 X-2.1912 Y0.9891 F31.7683
G1 X-2.1906 Y0.9967 F31.7683
G1 X-2.1908 Y1.0010 F31.7683
G1 X-2.1929 Y1.0138 F31.7683
G0 X-2.1932 Y1.0177
G0 X-2.1928 Y1.0214
G0 X-2.1913 Y1.0288
G0 X-2.1750 Y1.0789
G0 X-2.1719 Y1.0858
G0 X-2.1428 Y1.1259
G1 X-2.1403 Y1.1292 F31.7683
G1 X-2.1348 Y1.1359 F31.7683
G1 X-2.1319 Y1.1387 F31.7683
G1 X-2.1287 Y1.1406 F31.7683
G1 X-2.1254 Y1.1419 F31.7683
G1 X-2.1145 Y1.1442 F31.7683
G1 X-2.1075 Y1.1465 F31.7683
G1 X-2.1008 Y1.1497 F31.7683
G1 X-2.1008 Y1.1497 F31.7683
G1 X-2.0993 Y1.1483 F31.7683
G1 X-2.0953 Y1.1469 F31.7683
G1 X-2.0749 Y1.1375 F31.7683
G1 X-2.0690 Y1.1363 F31.7683
G1 X-2.0652 Y1.1346 F31.7683
G1 X-2.0632 Y1.1342 F31.7683
G1 X-2.0418 Y1.1406 F31.7683
G1 X-2.0221 Y1.1448 F31.7683
G1 X-2.0044 Y1.1469 F31.7683
G1 X2.0055 Y1.1467 F31.7683
G1 X2.0332 Y1.1428 F31.7683
G1 X2.0591 Y1.1353 F31.7683
G1 X2.0840 Y1.1246 F31.7683
G1 X2.0942 Y1.1191 F31.7683
G1 X2.1136 Y1.1061 F31.7683
G1 X2.1244 Y1.0979 F31.7683
G1 X2.1463 Y1.0764 F31.7683
G1 X2.1618 Y1.0561 F31.7683
G1 X2.1807 Y1.0210 F31.7683
G1 X2.1876 Y1.0023 F31.7683
G1 X2.1969 Y0.9630 F31.7683
G1 X2.2344 Y0.6126 F31.7683
G1 X2.2370 Y-0.7840 F31.7683
G1 X2.2322 Y-0.8079 F31.7683
G1 X2.2231 Y-0.8337 F31.7683
G1 X2.2084 Y-0.8611 F31.7683
G1 X2.2016 Y-0.8729 F31.7683
G1 X2.1973 Y-0.8837 F31.7683
G1 X2.1973 Y-0.8837 F31.7683
G1 X2.1981 Y-0.8911 F31.7683
G1 X2.1988 Y-0.8947 F31.7683
G1 X2.1999 Y-0.8983 F31.7683
G1 X2.2014 Y-0.9017 F31.7683
G1 X2.2032 Y-0.9049 F31.7683
G1 X2.2053 Y-0.9078 F31.7683
G0 X2.2079 Y-0.9106
G0 X2.2137 Y-0.9155
G0 X2.2393 Y-0.9331
G0 X2.2419 Y-0.9357
G0 X2.2440 Y-0.9386
G0 X2.2453 Y-0.9419
G0 X2.2470 Y-0.9492
G0 X2.2477 Y-0.9569
G0 X2.2470 Y-0.9648
G0 X2.2355 Y-1.0160
G0 X2.2315 Y-1.0276
G0 X2.2181 Y-1.0575
G0 X2.1992 Y-1.0865
G0 X2.1919 Y-1.0953
G0 X2.1700 Y-1.1168
G0 X2.1432 Y-1.1383
G0 X2.1336 Y-1.1444
G0 X2.0821 Y-1.1692
G0 X2.0714 Y-1.1731
G0 X2.0116 Y-1.1852
G0 X2.0004 Y-1.1861
G0 X1.9503 Y-1.1857
G0 X1.8111 Y-1.1874
G0 X1.3193 Y-1.1868
G0 X0.9106 Y-1.1849
G0 X0.6900 Y-1.1868
G0 X0.6017 Y-1.1845
G0 X0.5711 Y-1.1863
G0 X0.5589 Y-1.1853
G0 X0.5466 Y-1.1832
G0 X0.5427 Y-1.1820
G0 X0.5390 Y-1.1804
G0 X0.5322 Y-1.1762
G0 X0.5103 Y-1.1577
G1 X0.5071 Y-1.1549 F31.7683
G1 X0.5004 Y-1.1490 F31.7683
G1 X0.4849 Y-1.1325 F31.7683
G1 X0.4817 Y-1.1297 F31.7683
G1 X0.4717 Y-1.1233 F31.7683
G1 X0.4717 Y-1.1233 F31.7683
G1 X0.4361 Y-1.1083 F31.7683
G1 X0.3722 Y-1.0755 F31.7683
G1 X0.3589 Y-1.0706 F31.7683
G1 X0.2841 Y-1.0549 F31.7683
G1 X0.2368 Y-1.0506 F31.7683
G1 X0.2053 Y-1.0485 F31.7683
G1 X0.0164 Y-1.0401 F31.7683
G1 X-0.3167 Y-1.0306 F31.7683
G1 X-0.3222 Y-1.0314 F31.7683
G1 X-0.3313 Y-1.0343 F31.7683
G1 X-0.3313 Y-1.0343 F31.7683
G1 X-0.3371 Y-1.0422 F31.7683
G1 X-0.3392 Y-1.0460 F31.7683
G1 X-0.3408 Y-1.0496 F31.7683
G1 X-0.3417 Y-1.0530 F31.7683
G1 X-0.3415 Y-1.0561 F31.7683
G0 X-0.3404 Y-1.0584
G0 X-0.3382 Y-1.0603
G0 X-0.3354 Y-1.0618
G0 X-0.3057 Y-1.0688
G0 X-0.2902 Y-1.0706
G0 X0.0490 Y-1.0871
G0 X0.3078 Y-1.1042
G0 X0.3786 Y-1.1035
G1 X0.3824 Y-1.1035 F31.7683
G1 X0.3900 Y-1.1032 F31.7683
G1 X0.3935 Y-1.1030 F31.7683
G1 X0.3960 Y-1.1021 F31.7683
G1 X0.3976 Y-1.1004 F31.7683
G1 X0.3981 Y-1.0982 F31.7683
G1 X0.3978 Y-1.0953 F31.7683
G1 X0.3965 Y-1.0924 F31.7683
G1 X0.3947 Y-1.0893 F31.7683
G1 X0.3920 Y-1.0860 F31.7683
G1 X0.3851 Y-1.0790 F31.7683
G1 X0.3851 Y-1.0790 F31.7683
G1 X0.3301 Y-1.0359 F31.7683
G1 X0.3129 Y-1.0245 F31.7683
G1 X0.2901 Y-1.0148 F31.7683
G1 X0.2271 Y-0.9968 F31.7683
G1 X0.2116 Y-0.9935 F31.7683
G1 X0.1647 Y-0.9857 F31.7683
G1 X0.1335 Y-0.9817 F31.7683
G1 X0.0705 Y-0.9758 F31.7683
G1 X0.0233 Y-0.9724 F31.7683
G1 X-0.0706 Y-0.9675 F31.7683
G1 X-0.1331 Y-0.9653 F31.7683
G1 X-0.2454 Y-0.9592 F31.7683
G1 X-0.2565 Y-0.9620 F31.7683
G1 X-0.2600 Y-0.9635 F31.7683
G1 X-0.2616 Y-0.9644 F31.7683
G1 X-0.2792 Y-0.9820 F31.7683
G1 X-0.2792 Y-0.9820 F31.7683
G1 X-0.2849 Y-0.9899 F31.7683
G1 X-0.2870 Y-0.9937 F31.7683
G1 X-0.2886 Y-0.9973 F31.7683
G1 X-0.2895 Y-1.0007 F31.7683
G1 X-0.2894 Y-1.0036 F31.7683
G0 X-0.2883 Y-1.0058
G0 X-0.2862 Y-1.0073
G0 X-0.2833 Y-1.0082
G0 X-0.2766 Y-1.0095
G0 X0.3140 Y-1.0557
G1 X0.3194 Y-1.0562 F31.7683
G1 X0.3279 Y-1.0568 F31.7683
G1 X0.3314 Y-1.0568 F31.7683
G1 X0.3343 Y-1.0561 F31.7683
G1 X0.3361 Y-1.0546 F31.7683
G1 X0.3370 Y-1.0524 F31.7683
G1 X0.3370 Y-1.0496 F31.7683
G1 X0.3364 Y-1.0464 F31.7683
G1 X0.3350 Y-1.0429 F31.7683
G1 X0.3330 Y-1.0391 F31.7683
G1 X0.3276 Y-1.0309 F31.7683
G1 X0.3276 Y-1.0309 F31.7683
G1 X0.2768 Y-0.9819 F31.7683
G1 X0.2518 Y-0.9638 F31.7683
G1 X0.2084 Y-0.9451 F31.7683
G1 X0.1592 Y-0.9301 F31.7683
G1 X0.1283 Y-0.9231 F31.7683
G1 X0.0816 Y-0.9150 F31.7683
G1 X0.0503 Y-0.9108 F31.7683
G1 X0.0188 Y-0.9072 F31.7683
G1 X-0.0282 Y-0.9028 F31.7683
G1 X-0.0750 Y-0.8991 F31.7683
G1 X-0.1219 Y-0.8949 F31.7683
G1 X-0.1763 Y-0.8914 F31.7683
G1 X-0.1818 Y-0.8921 F31.7683
G1 X-0.1925 Y-0.8958 F31.7683
G1 X-0.2089 Y-0.9119 F31.7683
G1 X-0.2089 Y-0.9119 F31.7683
G1 X-0.2147 Y-0.9198 F31.7683
G1 X-0.2168 Y-0.9236 F31.7683
G1 X-0.2184 Y-0.9272 F31.7683
G1 X-0.2192 Y-0.9306 F31.7683
G1 X-0.2191 Y-0.9336 F31.7683
G0 X-0.2180 Y-0.9358
G0 X-0.2159 Y-0.9375
G0 X-0.2131 Y-0.9386
G0 X-0.2063 Y-0.9401
G0 X0.2617 Y-1.0015
G1 X0.2666 Y-1.0021 F31.7683
G1 X0.2749 Y-1.0032 F31.7683
G1 X0.2784 Y-1.0033 F31.7683
G1 X0.2812 Y-1.0028 F31.7683
G1 X0.2831 Y-1.0015 F31.7683
G1 X0.2840 Y-0.9993 F31.7683
G1 X0.2840 Y-0.9964 F31.7683
G1 X0.2833 Y-0.9932 F31.7683
G1 X0.2820 Y-0.9898 F31.7683
G1 X0.2800 Y-0.9861 F31.7683
G1 X0.2746 Y-0.9779 F31.7683
G1 X0.2746 Y-0.9779 F31.7683
G1 X0.2074 Y-0.9129 F31.7683
G1 X0.1807 Y-0.8939 F31.7683
G1 X0.1345 Y-0.8739 F31.7683
G1 X0.0912 Y-0.8610 F31.7683
G1 X0.0604 Y-0.8535 F31.7683
G1 X0.0294 Y-0.8469 F31.7683
G1 X-0.0327 Y-0.8375 F31.7683
G1 X-0.1054 Y-0.8294 F31.7683
G1 X-0.1165 Y-0.8294 F31.7683
G1 X-0.1275 Y-0.8323 F31.7683
G1 X-0.1308 Y-0.8339 F31.7683
G1 X-0.1389 Y-0.8420 F31.7683
G1 X-0.1389 Y-0.8420 F31.7683
G1 X-0.1447 Y-0.8499 F31.7683
G1 X-0.1468 Y-0.8537 F31.7683
G1 X-0.1484 Y-0.8573 F31.7683
G1 X-0.1492 Y-0.8607 F31.7683
G1 X-0.1491 Y-0.8637 F31.7683
G0 X-0.1480 Y-0.8661
G0 X-0.1459 Y-0.8679
G0 X-0.1432 Y-0.8691
G0 X-0.1366 Y-0.8709
G0 X0.1945 Y-0.9310
G1 X0.1991 Y-0.9318 F31.7683
G1 X0.2069 Y-0.9332 F31.7683
G1 X0.2104 Y-0.9336 F31.7683
G1 X0.2131 Y-0.9332 F31.7683
G1 X0.2148 Y-0.9320 F31.7683
G1 X0.2157 Y-0.9299 F31.7683
G1 X0.2157 Y-0.9270 F31.7683
G1 X0.2149 Y-0.9240 F31.7683
G1 X0.2135 Y-0.9206 F31.7683
G1 X0.2114 Y-0.9170 F31.7683
G1 X0.2056 Y-0.9090 F31.7683
G1 X0.2056 Y-0.9090 F31.7683
G1 X0.1368 Y-0.8428 F31.7683
G1 X0.1120 Y-0.8248 F31.7683
G1 X0.0634 Y-0.8034 F31.7683
G1 X0.0201 Y-0.7897 F31.7683
G1 X0.0047 Y-0.7859 F31.7683
G1 X-0.0502 Y-0.7763 F31.7683
G1 X-0.0613 Y-0.7756 F31.7683
G1 X-0.0668 Y-0.7763 F31.7683
G1 X-0.0757 Y-0.7793 F31.7683
G1 X-0.0771 Y-0.7804 F31.7683
G1 X-0.0771 Y-0.7804 F31.7683
G1 X-0.0829 Y-0.7883 F31.7683
G1 X-0.0850 Y-0.7921 F31.7683
G1 X-0.0866 Y-0.7956 F31.7683
G1 X-0.0875 Y-0.7991 F31.7683
G1 X-0.0875 Y-0.8022 F31.7683
G0 X-0.0862 Y-0.8047
G0 X-0.0842 Y-0.8067
G0 X-0.0814 Y-0.8083
G0 X-0.0748 Y-0.8109
G0 X0.0320 Y-0.8413
G0 X0.1261 Y-0.8620
G1 X0.1299 Y-0.8628 F31.7683
G1 X0.1373 Y-0.8644 F31.7683
G1 X0.1407 Y-0.8649 F31.7683
G1 X0.1435 Y-0.8647 F31.7683
G1 X0.1452 Y-0.8634 F31.7683
G1 X0.1460 Y-0.8613 F31.7683
G1 X0.1460 Y-0.8586 F31.7683
G1 X0.1454 Y-0.8554 F31.7683
G1 X0.1441 Y-0.8520 F31.7683
G1 X0.1421 Y-0.8483 F31.7683
G1 X0.1367 Y-0.8401 F31.7683
G1 X0.1367 Y-0.8401 F31.7683
G1 X0.0680 Y-0.7735 F31.7683
G1 X0.0413 Y-0.7544 F31.7683
G1 X0.0187 Y-0.7447 F31.7683
G1 X-0.0138 Y-0.7365 F31.7683
G1 X-0.0212 Y-0.7355 F31.7683
G1 X-0.0267 Y-0.7361 F31.7683
G1 X-0.0341 Y-0.7382 F31.7683
G1 X-0.0358 Y-0.7391 F31.7683
G1 X-0.0358 Y-0.7391 F31.7683
G1 X-0.0416 Y-0.7469 F31.7683
G1 X-0.0437 Y-0.7507 F31.7683
G1 X-0.0453 Y-0.7543 F31.7683
G1 X-0.0461 Y-0.7578 F31.7683
G1 X-0.0460 Y-0.7608 F31.7683
G0 X-0.0449 Y-0.7632
G0 X-0.0428 Y-0.7650
G0 X-0.0400 Y-0.7665
G0 X-0.0290 Y-0.7696
G0 X0.0527 Y-0.7873
G1 X0.0565 Y-0.7881 F31.7683
G1 X0.0639 Y-0.7897 F31.7683
G1 X0.0673 Y-0.7902 F31.7683
G1 X0.0700 Y-0.7900 F31.7683
G1 X0.0717 Y-0.7888 F31.7683
G1 X0.0725 Y-0.7867 F31.7683
G1 X0.0725 Y-0.7840 F31.7683
G1 X0.0717 Y-0.7809 F31.7683
G1 X0.0703 Y-0.7776 F31.7683
G1 X0.0682 Y-0.7739 F31.7683
G1 X0.0624 Y-0.7659 F31.7683
G1 X0.0624 Y-0.7659 F31.7683
G1 X0.0207 Y-0.7251 F31.7683
G1 X0.0089 Y-0.7169 F31.7683
G1 X0.0052 Y-0.7149 F31.7683
G1 X-0.0006 Y-0.7133 F31.7683
G1 X-0.0062 Y-0.7132 F31.7683
G1 X-0.0098 Y-0.7140 F31.7683
G1 X-0.0116 Y-0.7148 F31.7683
G1 X-0.0116 Y-0.7148 F31.7683
G1 X-0.0140 Y-0.7186 F31.7683
G1 X-0.0154 Y-0.7218 F31.7683
G0 X-0.0150 Y-0.7242
G0 X-0.0133 Y-0.7256
G0 X-0.0105 Y-0.7267
G0 X0.0004 Y-0.7282
G1 X0.0043 Y-0.7286 F31.7683
G1 X0.0151 Y-0.7292 F31.7683
G1 X0.0176 Y-0.7286 F31.7683
G1 X0.0187 Y-0.7271 F31.7683
G1 X0.0183 Y-0.7247 F31.7683
G1 X0.0146 Y-0.7181 F31.7683
G1 X0.0146 Y-0.7181 F31.7683
G1 X0.0087 Y-0.7122 F31.7683
G1 X0.0052 Y-0.7101 F31.7683
G1 X0.0032 Y-0.7095 F31.7683
G1 X-0.0006 Y-0.7093 F31.7683
G1 X-0.0043 Y-0.7099 F31.7683
G1 X-0.0043 Y-0.7099 F31.7683
G1 X-0.0101 Y-0.7146 F31.7683
G1 X-0.0153 Y-0.7200 F31.7683
G1 X-0.0176 Y-0.7229 F31.7683
G1 X-0.0194 Y-0.7261 F31.7683
G1 X-0.0209 Y-0.7295 F31.7683
G0 X-0.0217 Y-0.7330
G0 X-0.0220 Y-0.7368
G0 X-0.0186 Y-0.7687
G0 X-0.0188 Y-0.7724
G0 X-0.0196 Y-0.7758
G0 X-0.0210 Y-0.7790
G0 X-0.0253 Y-0.7848
G0 X-0.0725 Y-0.8371
G0 X-0.1036 Y-0.8633
G0 X-0.1232 Y-0.8846
G0 X-0.1583 Y-0.9251
G0 X-0.2371 Y-1.0011
G0 X-0.3280 Y-1.0910
G0 X-0.3526 Y-1.1113
G0 X-0.3626 Y-1.1181
G0 X-0.3942 Y-1.1348
G0 X-0.4647 Y-1.1635
G0 X-0.5362 Y-1.1821
G0 X-0.5479 Y-1.1839
G0 X-0.6373 Y-1.1876
G0 X-1.1142 Y-1.1852
G0 X-1.7395 Y-1.1875
G0 X-1.9439 Y-1.1896
G0 X-2.0252 Y-1.1833
G0 X-2.0691 Y-1.1721
G0 X-2.0833 Y-1.1670
G0 X-2.1142 Y-1.1528
G0 X-2.1207 Y-1.1492
G0 X-2.1534 Y-1.1238
G0 X-2.1874 Y-1.0883
G0 X-2.1921 Y-1.0823
G0 X-2.2121 Y-1.0448
G0 X-2.2293 Y-0.9973
G0 X-2.2320 Y-0.9861
G0 X-2.2376 Y-0.9477
G0 X-2.2379 Y-0.9439
G0 X-2.2378 Y-0.9402
G0 X-2.2371 Y-0.9366
G0 X-2.2359 Y-0.9332
G0 X-2.2323 Y-0.9267
G0 X-2.2212 Y-0.9103
G1 X-2.2188 Y-0.9069 F31.7683
G1 X-2.2044 Y-0.8858 F31.7683
G1 X-2.2009 Y-0.8792 F31.7683
G1 X-2.1987 Y-0.8720 F31.7683
G1 X-2.1972 Y-0.8648 F31.7683
G1 X-2.1972 Y-0.8648 F31.7683
G1 X-2.1973 Y0.8317 F31.7683
G1 X-2.1973 Y0.8317 F31.7683
G1 X-2.1981 Y0.8391 F31.7683
G1 X-2.1988 Y0.8426 F31.7683
G1 X-2.1999 Y0.8462 F31.7683
G1 X-2.2031 Y0.8530 F31.7683
G1 X-2.2051 Y0.8561 F31.7683
G0 X-2.2073 Y0.8591
G0 X-2.2354 Y0.8951
G0 X-2.2371 Y0.8983
G0 X-2.2383 Y0.9016
G0 X-2.2389 Y0.9050
G0 X-2.2392 Y0.9124
G0 X-2.2365 Y0.9505
G0 X-2.2240 Y1.0201
G0 X-2.2217 Y1.0281
G0 X-2.2023 Y1.0696
G0 X-2.1978 Y1.0765
G0 X-2.1850 Y1.0930
G0 X-2.1734 Y1.1102
G0 X-2.1679 Y1.1164
G0 X-2.1587 Y1.1248
G0 X-2.1491 Y1.1319
G0 X-2.0955 Y1.1638
G0 X-2.0880 Y1.1672
G0 X-2.0293 Y1.1822
G0 X-2.0176 Y1.1841
G0 X-1.9785 Y1.1866
G0 X-1.8714 Y1.1852
G0 X-1.7039 Y1.1881
G0 X-1.0985 Y1.1855
G0 X0.0993 Y1.1850
G0 X1.1743 Y1.1859
G0 X1.9894 Y1.1850
G0 X2.0289 Y1.1818
G0 X2.0672 Y1.1726
G0 X2.0782 Y1.1687
G0 X2.1102 Y1.1535
G0 X2.1426 Y1.1313
G0 X2.1761 Y1.1000
G0 X2.1859 Y1.0886
G0 X2.2036 Y1.0642
G0 X2.2074 Y1.0576
G0 X2.2199 Y1.0241
G0 X2.2210 Y1.0204
G0 X2.2217 Y1.0166
G0 X2.2218 Y1.0128
G0 X2.2215 Y1.0089
G0 X2.2184 Y0.9972
G0 X2.2158 Y0.9892
G1 X2.2143 Y0.9850 F31.7683
G1 X2.2096 Y0.9726 F31.7683
G1 X2.2024 Y0.9584 F31.7683
G1 X2.1996 Y0.9514 F31.7683
G1 X2.1972 Y0.9406 F31.7683
G1 X2.1972 Y0.9406 F31.7683
G1 X2.1973 Y-0.7532 F31.7683
G1 X2.1973 Y-0.7532 F31.7683
G1 X2.1978 Y-0.7550 F31.7683
G1 X2.1982 Y-0.7560 F31.7683
G1 X2.1972 Y-0.7618 F31.7683
G1 X2.1972 Y-0.7618 F31.7683
G1 X2.1973 Y-0.7913 F31.7683
G0 Z0.2362
G0 Z0.2362
(Finish operation: adaptive_outside_1)
(Coolant Off: Flood)
M9
(Begin operation: adaptive_outside_2)
(Machine units: in/min)
(Coolant On: Flood)
M8
(adaptive_outside_2)
G0 Z0.2362
G0 X2.1988 Y-1.1353 Z0.2362
G1 X2.1988 Y-1.1353 Z-0.7894 F15.8842
(Adaptive - depth: -20.050000)
G1 X2.1988 Y-1.1353 F31.7683
G1 X2.1965 Y-1.1344 F31.7683
G1 X2.1922 Y-1.1316 F31.7683
G1 X2.1848 Y-1.1323 F31.7683
G1 X2.1816 Y-1.1312 F31.7683
G1 X2.1663 Y-1.1270 F31.7683
G1 X2.1073 Y-1.1201 F31.7683
G1 X2.0896 Y-1.1219 F31.7683
G1 X2.0770 Y-1.1282 F31.7683
G1 X2.0469 Y-1.1393 F31.7683
G1 X2.0252 Y-1.1443 F31.7683
G1 X2.0036 Y-1.1469 F31.7683
G1 X-1.9989 Y-1.1471 F31.7683
G1 X-2.0155 Y-1.1458 F31.7683
G1 X-2.0432 Y-1.1404 F31.7683
G1 X-2.0794 Y-1.1270 F31.7683
G1 X-2.0965 Y-1.1177 F31.7683
G1 X-2.1095 Y-1.1091 F31.7683
G1 X-2.1294 Y-1.0934 F31.7683
G1 X-2.1483 Y-1.0741 F31.7683
G1 X-2.1668 Y-1.0481 F31.7683
G1 X-2.1805 Y-1.0215 F31.7683
G1 X-2.1863 Y-1.0068 F31.7683
G1 X-2.1943 Y-0.9753 F31.7683
G1 X-2.2200 Y0.8517 F31.7683
G1 X-2.2144 Y0.8794 F31.7683
G1 X-2.1976 Y0.9248 F31.7683
G1 X-2.1969 Y0.9525 F31.7683
G1 X-2.1955 Y0.9673 F31.7683
G1 X-2.1941 Y0.9765 F31.7683
G1 X-2.1902 Y0.9931 F31.7683
G1 X-2.1902 Y0.9931 F31.7683
G1 X-2.1896 Y1.0007 F31.7683
G1 X-2.1898 Y1.0050 F31.7683
G1 X-2.1919 Y1.0178 F31.7683
G0 X-2.1921 Y1.0218
G0 X-2.1918 Y1.0256
G0 X-2.1901 Y1.0331
G0 X-2.1745 Y1.0808
G0 X-2.1711 Y1.0880
G0 X-2.1433 Y1.1256
G1 X-2.1410 Y1.1287 F31.7683
G1 X-2.1340 Y1.1374 F31.7683
G1 X-2.1313 Y1.1396 F31.7683
G1 X-2.1283 Y1.1411 F31.7683
G1 X-2.1251 Y1.1421 F31.7683
G1 X-2.1145 Y1.1442 F31.7683
G1 X-2.1075 Y1.1465 F31.7683
G1 X-2.1008 Y1.1497 F31.7683
G1 X-2.1008 Y1.1497 F31.7683
G1 X-2.0993 Y1.1483 F31.7683
G1 X-2.0953 Y1.1469 F31.7683
G1 X-2.0749 Y1.1375 F31.7683
G1 X-2.0690 Y1.1363 F31.7683
G1 X-2.0672 Y1.1353 F31.7683
G1 X-2.0632 Y1.1344 F31.7683
G1 X-2.0613 Y1.1346 F31.7683
G1 X-2.0418 Y1.1406 F31.7683
G1 X-2.0221 Y1.1448 F31.7683
G1 X-2.0044 Y1.1469 F31.7683
G1 X2.0055 Y1.1467 F31.7683
G1 X2.0332 Y1.1428 F31.7683
G1 X2.0591 Y1.1353 F31.7683
G1 X2.0840 Y1.1246 F31.7683
G1 X2.0942 Y1.1191 F31.7683
G1 X2.1090 Y1.1095 F31.7683
G1 X2.1292 Y1.0936 F31.7683
G1 X2.1468 Y1.0759 F31.7683
G1 X2.1622 Y1.0555 F31.7683
G1 X2.1742 Y1.0349 F31.7683
G1 X2.1860 Y1.0073 F31.7683
G1 X2.1980 Y0.9580 F31.7683
G1 X2.2323 Y0.6588 F31.7683
G1 X2.2368 Y-0.7848 F31.7683
G1 X2.2345 Y-0.7996 F31.7683
G1 X2.2281 Y-0.8217 F31.7683
G1 X2.2170 Y-0.8463 F31.7683
G1 X2.2016 Y-0.8734 F31.7683
G1 X2.1973 Y-0.8842 F31.7683
G1 X2.1973 Y-0.8842 F31.7683
G1 X2.1981 Y-0.8916 F31.7683
G1 X2.1988 Y-0.8952 F31.7683
G1 X2.1999 Y-0.8987 F31.7683
G1 X2.2014 Y-0.9022 F31.7683
G1 X2.2052 Y-0.9086 F31.7683
G0 X2.2076 Y-0.9114
G0 X2.2403 Y-0.9437
G0 X2.2429 Y-0.9464
G0 X2.2448 Y-0.9493
G0 X2.2461 Y-0.9525
G0 X2.2466 Y-0.9558
G0 X2.2462 Y-0.9631
G0 X2.2387 Y-1.0046
G0 X2.2239 Y-1.0492
G0 X2.2207 Y-1.0563
G0 X2.1957 Y-1.0918
G0 X2.1907 Y-1.0978
G0 X2.1614 Y-1.1244
G0 X2.1486 Y-1.1339
G0 X2.1184 Y-1.1528
G0 X2.0784 Y-1.1702
G0 X2.0634 Y-1.1750
G0 X2.0288 Y-1.1829
G0 X2.0097 Y-1.1845
G0 X1.8460 Y-1.1887
G0 X1.6722 Y-1.1863
G0 X-0.1091 Y-1.1866
G0 X-1.1534 Y-1.1850
G0 X-2.0062 Y-1.1860
G0 X-2.0178 Y-1.1852
G0 X-2.0487 Y-1.1797
G0 X-2.0563 Y-1.1778
G0 X-2.1154 Y-1.1519
G0 X-2.1223 Y-1.1479
G0 X-2.1446 Y-1.1302
G0 X-2.1577 Y-1.1207
G0 X-2.1635 Y-1.1150
G0 X-2.2014 Y-1.0679
G0 X-2.2057 Y-1.0613
G0 X-2.2216 Y-1.0223
G0 X-2.2333 Y-0.9742
G0 X-2.2393 Y-0.9252
G0 X-2.2395 Y-0.9214
G0 X-2.2393 Y-0.9178
G0 X-2.2386 Y-0.9144
G0 X-2.2372 Y-0.9110
G0 X-2.2334 Y-0.9048
G0 X-2.2219 Y-0.8893
G1 X-2.2194 Y-0.8858 F31.7683
G1 X-2.2066 Y-0.8687 F31.7683
G1 X-2.2025 Y-0.8621 F31.7683
G1 X-2.1997 Y-0.8552 F31.7683
G1 X-2.1972 Y-0.8444 F31.7683
G1 X-2.1972 Y-0.8444 F31.7683
G1 X-2.1973 Y0.8360 F31.7683
G1 X-2.1973 Y0.8360 F31.7683
G1 X-2.1981 Y0.8434 F31.7683
G1 X-2.1988 Y0.8469 F31.7683
G1 X-2.1999 Y0.8505 F31.7683
G1 X-2.2031 Y0.8573 F31.7683
G1 X-2.2051 Y0.8604 F31.7683
G0 X-2.2072 Y0.8636
G0 X-2.2350 Y0.8996
G0 X-2.2367 Y0.9028
G0 X-2.2379 Y0.9063
G0 X-2.2386 Y0.9097
G0 X-2.2387 Y0.9171
G0 X-2.2356 Y0.9550
G0 X-2.2227 Y1.0242
G0 X-2.2202 Y1.0322
G0 X-2.2111 Y1.0509
G0 X-2.1860 Y1.0944
G0 X-2.1763 Y1.1073
G0 X-2.1709 Y1.1134
G0 X-2.1646 Y1.1188
G0 X-2.1446 Y1.1336
G0 X-2.1318 Y1.1441
G0 X-2.1248 Y1.1483
G0 X-2.1063 Y1.1574
G0 X-2.0886 Y1.1676
G0 X-2.0811 Y1.1708
G0 X-2.0266 Y1.1843
G0 X-2.0149 Y1.1861
G0 X-1.9756 Y1.1882
G0 X-1.8685 Y1.1855
G0 X-1.6914 Y1.1866
G0 X-1.0979 Y1.1855
G0 X0.0260 Y1.1882
G0 X1.1741 Y1.1848
G0 X1.9891 Y1.1866
G0 X2.0285 Y1.1836
G0 X2.0667 Y1.1745
G0 X2.0779 Y1.1705
G0 X2.1099 Y1.1555
G0 X2.1423 Y1.1332
G0 X2.1515 Y1.1255
G0 X2.1898 Y1.0850
G0 X2.1943 Y1.0790
G0 X2.2205 Y1.0261
G0 X2.2221 Y1.0224
G0 X2.2231 Y1.0187
G0 X2.2234 Y1.0149
G0 X2.2231 Y1.0111
G0 X2.2210 Y1.0032
G0 X2.2167 Y0.9913
G1 X2.2151 Y0.9871 F31.7683
G1 X2.2099 Y0.9747 F31.7683
G1 X2.2024 Y0.9606 F31.7683
G1 X2.1996 Y0.9536 F31.7683
G1 X2.1972 Y0.9428 F31.7683
G1 X2.1972 Y0.9428 F31.7683
G1 X2.1973 Y-0.7585 F31.7683
G1 X2.1973 Y-0.7585 F31.7683
G1 X2.1978 Y-0.7603 F31.7683
G1 X2.1982 Y-0.7613 F31.7683
G1 X2.1972 Y-0.7671 F31.7683
G1 X2.1972 Y-0.7671 F31.7683
G1 X2.1973 Y-0.7948 F31.7683
G0 Z0.2362
G0 Z0.2362
(Finish operation: adaptive_outside_2)
(Coolant Off: Flood)
M9
(Begin operation: adaptive_inside)
(Machine units: in/min)
(Coolant On: Flood)
M8
(adaptive_inside)
(Helix to depth: -12.450000)
G0 Z0.2362
G0 X-1.0768 Y-0.2271 Z0.2362
G0 X-1.0768 Y-0.2271 Z0.1575
G1 X-1.0768 Y-0.2271 Z0.0394 F15.8842
G1 X-1.0269 Y-0.1241 Z0.0394 F15.8842
G1 X-1.0275 Y-0.1112 Z0.0388 F15.8842
G1 X-1.0293 Y-0.0985 Z0.0382 F15.8842
G1 X-1.0321 Y-0.0859 Z0.0376 F15.8842
G1 X-1.0361 Y-0.0736 Z0.0370 F15.8842
G1 X-1.0412 Y-0.0617 Z0.0364 F15.8842
G1 X-1.0473 Y-0.0504 Z0.0358 F15.8842
G1 X-1.0543 Y-0.0396 Z0.0352 F15.8842
G1 X-1.0623 Y-0.0295 Z0.0346 F15.8842
G1 X-1.0712 Y-0.0201 Z0.0341 F15.8842
G1 X-1.0808 Y-0.0116 Z0.0335 F15.8842
G1 X-1.0912 Y-0.0039 Z0.0329 F15.8842
G1 X-1.1022 Y0.0028 Z0.0323 F15.8842
G1 X-1.1138 Y0.0084 Z0.0317 F15.8842
G1 X-1.1258 Y0.0131 Z0.0311 F15.8842
G1 X-1.1382 Y0.0166 Z0.0305 F15.8842
G1 X-1.1509 Y0.0190 Z0.0299 F15.8842
G1 X-1.1637 Y0.0203 Z0.0293 F15.8842
G1 X-1.1765 Y0.0205 Z0.0287 F15.8842
G1 X-1.1894 Y0.0195 Z0.0281 F15.8842
G1 X-1.2021 Y0.0173 Z0.0276 F15.8842
G1 X-1.2145 Y0.0141 Z0.0270 F15.8842
G1 X-1.2266 Y0.0097 Z0.0264 F15.8842
G1 X-1.2383 Y0.0043 Z0.0258 F15.8842
G1 X-1.2495 Y-0.0021 Z0.0252 F15.8842
G1 X-1.2600 Y-0.0095 Z0.0246 F15.8842
G1 X-1.2698 Y-0.0178 Z0.0240 F15.8842
G1 X-1.2789 Y-0.0269 Z0.0234 F15.8842
G1 X-1.2871 Y-0.0368 Z0.0228 F15.8842
G1 X-1.2944 Y-0.0474 Z0.0222 F15.8842
G1 X-1.3007 Y-0.0586 Z0.0217 F15.8842
G1 X-1.3060 Y-0.0703 Z0.0211 F15.8842
G1 X-1.3102 Y-0.0824 Z0.0205 F15.8842
G1 X-1.3134 Y-0.0949 Z0.0199 F15.8842
G1 X-1.3154 Y-0.1075 Z0.0193 F15.8842
G1 X-1.3163 Y-0.1204 Z0.0187 F15.8842
G1 X-1.3160 Y-0.1332 Z0.0181 F15.8842
G1 X-1.3146 Y-0.1460 Z0.0175 F15.8842
G1 X-1.3121 Y-0.1586 Z0.0169 F15.8842
G1 X-1.3085 Y-0.1709 Z0.0163 F15.8842
G1 X-1.3038 Y-0.1828 Z0.0157 F15.8842
G1 X-1.2980 Y-0.1943 Z0.0152 F15.8842
G1 X-1.2913 Y-0.2052 Z0.0146 F15.8842
G1 X-1.2836 Y-0.2155 Z0.0140 F15.8842
G1 X-1.2750 Y-0.2250 Z0.0134 F15.8842
G1 X-1.2656 Y-0.2337 Z0.0128 F15.8842
G1 X-1.2555 Y-0.2416 Z0.0122 F15.8842
G1 X-1.2447 Y-0.2485 Z0.0116 F15.8842
G1 X-1.2333 Y-0.2545 Z0.0110 F15.8842
G1 X-1.2215 Y-0.2594 Z0.0104 F15.8842
G1 X-1.2093 Y-0.2633 Z0.0098 F15.8842
G1 X-1.1968 Y-0.2660 Z0.0093 F15.8842
G1 X-1.1840 Y-0.2676 Z0.0087 F15.8842
G1 X-1.1712 Y-0.2681 Z0.0081 F15.8842
G1 X-1.1585 Y-0.2674 Z0.0075 F15.8842
G1 X-1.1458 Y-0.2656 Z0.0069 F15.8842
G1 X-1.1333 Y-0.2627 Z0.0063 F15.8842
G1 X-1.1211 Y-0.2587 Z0.0057 F15.8842
G1 X-1.1094 Y-0.2537 Z0.0051 F15.8842
G1 X-1.0981 Y-0.2476 Z0.0045 F15.8842
G1 X-1.0875 Y-0.2405 Z0.0039 F15.8842
G1 X-1.0775 Y-0.2325 Z0.0033 F15.8842
G1 X-1.0682 Y-0.2237 Z0.0028 F15.8842
G1 X-1.0598 Y-0.2140 Z0.0022 F15.8842
G1 X-1.0523 Y-0.2037 Z0.0016 F15.8842
G1 X-1.0457 Y-0.1927 Z0.0010 F15.8842
G1 X-1.0401 Y-0.1812 Z0.0004 F15.8842
G1 X-1.0356 Y-0.1693 Z-0.0002 F15.8842
G1 X-1.0321 Y-0.1569 Z-0.0008 F15.8842
G1 X-1.0298 Y-0.1444 Z-0.0014 F15.8842
G1 X-1.0286 Y-0.1317 Z-0.0020 F15.8842
G1 X-1.0285 Y-0.1189 Z-0.0026 F15.8842
G1 X-1.0296 Y-0.1061 Z-0.0031 F15.8842
G1 X-1.0317 Y-0.0936 Z-0.0037 F15.8842
G1 X-1.0350 Y-0.0812 Z-0.0043 F15.8842
G1 X-1.0394 Y-0.0692 Z-0.0049 F15.8842
G1 X-1.0448 Y-0.0577 Z-0.0055 F15.8842
G1 X-1.0513 Y-0.0466 Z-0.0061 F15.8842
G1 X-1.0587 Y-0.0362 Z-0.0067 F15.8842
G1 X-1.0669 Y-0.0265 Z-0.0073 F15.8842
G1 X-1.0760 Y-0.0176 Z-0.0079 F15.8842
G1 X-1.0859 Y-0.0095 Z-0.0085 F15.8842
G1 X-1.0965 Y-0.0023 Z-0.0091 F15.8842
G1 X-1.1076 Y0.0039 Z-0.0096 F15.8842
G1 X-1.1192 Y0.0091 Z-0.0102 F15.8842
G1 X-1.1313 Y0.0133 Z-0.0108 F15.8842
G1 X-1.1437 Y0.0163 Z-0.0114 F15.8842
G1 X-1.1563 Y0.0183 Z-0.0120 F15.8842
G1 X-1.1690 Y0.0191 Z-0.0126 F15.8842
G1 X-1.1817 Y0.0187 Z-0.0132 F15.8842
G1 X-1.1944 Y0.0173 Z-0.0138 F15.8842
G1 X-1.2069 Y0.0147 Z-0.0144 F15.8842
G1 X-1.2191 Y0.0111 Z-0.0150 F15.8842
G1 X-1.2309 Y0.0063 Z-0.0156 F15.8842
G1 X-1.2423 Y0.0005 Z-0.0161 F15.8842
G1 X-1.2530 Y-0.0062 Z-0.0167 F15.8842
G1 X-1.2632 Y-0.0139 Z-0.0173 F15.8842
G1 X-1.2726 Y-0.0225 Z-0.0179 F15.8842
G1 X-1.2812 Y-0.0318 Z-0.0185 F15.8842
G1 X-1.2890 Y-0.0419 Z-0.0191 F15.8842
G1 X-1.2958 Y-0.0526 Z-0.0197 F15.8842
G1 X-1.3017 Y-0.0639 Z-0.0203 F15.8842
G1 X-1.3065 Y-0.0757 Z-0.0209 F15.8842
G1 X-1.3102 Y-0.0879 Z-0.0215 F15.8842
G1 X-1.3129 Y-0.1003 Z-0.0220 F15.8842
G1 X-1.3144 Y-0.1129 Z-0.0226 F15.8842
G1 X-1.3149 Y-0.1256 Z-0.0232 F15.8842
G1 X-1.3141 Y-0.1383 Z-0.0238 F15.8842
G1 X-1.3123 Y-0.1509 Z-0.0244 F15.8842
G1 X-1.3093 Y-0.1633 Z-0.0250 F15.8842
G1 X-1.3053 Y-0.1753 Z-0.0256 F15.8842
G1 X-1.3002 Y-0.1869 Z-0.0262 F15.8842
G1 X-1.2941 Y-0.1981 Z-0.0268 F15.8842
G1 X-1.2870 Y-0.2086 Z-0.0274 F15.8842
G1 X-1.2790 Y-0.2185 Z-0.0280 F15.8842
G1 X-1.2702 Y-0.2276 Z-0.0285 F15.8842
G1 X-1.2606 Y-0.2359 Z-0.0291 F15.8842
G1 X-1.2503 Y-0.2434 Z-0.0297 F15.8842
G1 X-1.2394 Y-0.2498 Z-0.0303 F15.8842
G1 X-1.2279 Y-0.2553 Z-0.0309 F15.8842
G1 X-1.2161 Y-0.2597 Z-0.0315 F15.8842
G1 X-1.2038 Y-0.2631 Z-0.0321 F15.8842
G1 X-1.1913 Y-0.2654 Z-0.0327 F15.8842
G1 X-1.1787 Y-0.2665 Z-0.0333 F15.8842
G1 X-1.1660 Y-0.2665 Z-0.0339 F15.8842
G1 X-1.1534 Y-0.2654 Z-0.0344 F15.8842
G1 X-1.1409 Y-0.2632 Z-0.0350 F15.8842
G1 X-1.1287 Y-0.2598 Z-0.0356 F15.8842
G1 X-1.1168 Y-0.2554 Z-0.0362 F15.8842
G1 X-1.1054 Y-0.2500 Z-0.0368 F15.8842
G1 X-1.0945 Y-0.2435 Z-0.0374 F15.8842
G1 X-1.0842 Y-0.2362 Z-0.0380 F15.8842
G1 X-1.0746 Y-0.2279 Z-0.0386 F15.8842
G1 X-1.0657 Y-0.2188 Z-0.0392 F15.8842
G1 X-1.0578 Y-0.2090 Z-0.0398 F15.8842
G1 X-1.0507 Y-0.1985 Z-0.0404 F15.8842
G1 X-1.0446 Y-0.1874 Z-0.0409 F15.8842
G1 X-1.0395 Y-0.1758 Z-0.0415 F15.8842
G1 X-1.0354 Y-0.1638 Z-0.0421 F15.8842
G1 X-1.0325 Y-0.1515 Z-0.0427 F15.8842
G1 X-1.0306 Y-0.1390 Z-0.0433 F15.8842
G1 X-1.0299 Y-0.1264 Z-0.0439 F15.8842
G1 X-1.0303 Y-0.1137 Z-0.0445 F15.8842
G1 X-1.0318 Y-0.1012 Z-0.0451 F15.8842
G1 X-1.0344 Y-0.0888 Z-0.0457 F15.8842
G1 X-1.0381 Y-0.0767 Z-0.0463 F15.8842
G1 X-1.0428 Y-0.0650 Z-0.0469 F15.8842
G1 X-1.0486 Y-0.0538 Z-0.0474 F15.8842
G1 X-1.0554 Y-0.0431 Z-0.0480 F15.8842
G1 X-1.0631 Y-0.0331 Z-0.0486 F15.8842
G1 X-1.0716 Y-0.0238 Z-0.0492 F15.8842
G1 X-1.0810 Y-0.0152 Z-0.0498 F15.8842
G1 X-1.0910 Y-0.0076 Z-0.0504 F15.8842
G1 X-1.1017 Y-0.0009 Z-0.0510 F15.8842
G1 X-1.1129 Y0.0049 Z-0.0516 F15.8842
G1 X-1.1246 Y0.0096 Z-0.0522 F15.8842
G1 X-1.1367 Y0.0132 Z-0.0528 F15.8842
G1 X-1.1491 Y0.0158 Z-0.0533 F15.8842
G1 X-1.1616 Y0.0173 Z-0.0539 F15.8842
G1 X-1.1742 Y0.0176 Z-0.0545 F15.8842
G1 X-1.1868 Y0.0168 Z-0.0551 F15.8842
G1 X-1.1993 Y0.0149 Z-0.0557 F15.8842
G1 X-1.2115 Y0.0119 Z-0.0563 F15.8842
G1 X-1.2235 Y0.0079 Z-0.0569 F15.8842
G1 X-1.2350 Y0.0028 Z-0.0575 F15.8842
G1 X-1.2460 Y-0.0034 Z-0.0581 F15.8842
G1 X-1.2564 Y-0.0104 Z-0.0587 F15.8842
G1 X-1.2662 Y-0.0184 Z-0.0593 F15.8842
G1 X-1.2752 Y-0.0272 Z-0.0598 F15.8842
G1 X-1.2834 Y-0.0368 Z-0.0604 F15.8842
G1 X-1.2907 Y-0.0470 Z-0.0610 F15.8842
G1 X-1.2971 Y-0.0579 Z-0.0616 F15.8842
G1 X-1.3024 Y-0.0693 Z-0.0622 F15.8842
G1 X-1.3068 Y-0.0811 Z-0.0628 F15.8842
G1 X-1.3101 Y-0.0933 Z-0.0634 F15.8842
G1 X-1.3122 Y-0.1057 Z-0.0640 F15.8842
G1 X-1.3133 Y-0.1182 Z-0.0646 F15.8842
G1 X-1.3132 Y-0.1308 Z-0.0652 F15.8842
G1 X-1.3121 Y-0.1433 Z-0.0657 F15.8842
G1 X-1.3098 Y-0.1557 Z-0.0663 F15.8842
G1 X-1.3064 Y-0.1678 Z-0.0669 F15.8842
G1 X-1.3020 Y-0.1796 Z-0.0675 F15.8842
G1 X-1.2965 Y-0.1909 Z-0.0681 F15.8842
G1 X-1.2901 Y-0.2017 Z-0.0687 F15.8842
G1 X-1.2827 Y-0.2119 Z-0.0693 F15.8842
G1 X-1.2744 Y-0.2214 Z-0.0699 F15.8842
G1 X-1.2654 Y-0.2301 Z-0.0705 F15.8842
G1 X-1.2556 Y-0.2379 Z-0.0711 F15.8842
G1 X-1.2451 Y-0.2449 Z-0.0717 F15.8842
G1 X-1.2341 Y-0.2509 Z-0.0722 F15.8842
G1 X-1.2226 Y-0.2559 Z-0.0728 F15.8842
G1 X-1.2107 Y-0.2599 Z-0.0734 F15.8842
G1 X-1.1984 Y-0.2627 Z-0.0740 F15.8842
G1 X-1.1860 Y-0.2645 Z-0.0746 F15.8842
G1 X-1.1735 Y-0.2652 Z-0.0752 F15.8842
G1 X-1.1609 Y-0.2647 Z-0.0758 F15.8842
G1 X-1.1485 Y-0.2632 Z-0.0764 F15.8842
G1 X-1.1362 Y-0.2605 Z-0.0770 F15.8842
G1 X-1.1242 Y-0.2568 Z-0.0776 F15.8842
G1 X-1.1127 Y-0.2520 Z-0.0781 F15.8842
G1 X-1.1015 Y-0.2462 Z-0.0787 F15.8842
G1 X-1.0910 Y-0.2394 Z-0.0793 F15.8842
G1 X-1.0811 Y-0.2317 Z-0.0799 F15.8842
G1 X-1.0719 Y-0.2232 Z-0.0805 F15.8842
G1 X-1.0635 Y-0.2139 Z-0.0811 F15.8842
G1 X-1.0559 Y-0.2039 Z-0.0817 F15.8842
G1 X-1.0493 Y-0.1933 Z-0.0823 F15.8842
G1 X-1.0437 Y-0.1821 Z-0.0829 F15.8842
G1 X-1.0391 Y-0.1704 Z-0.0835 F15.8842
G1 X-1.0355 Y-0.1584 Z-0.0841 F15.8842
G1 X-1.0330 Y-0.1462 Z-0.0846 F15.8842
G1 X-1.0316 Y-0.1337 Z-0.0852 F15.8842
G1 X-1.0313 Y-0.1212 Z-0.0858 F15.8842
G1 X-1.0322 Y-0.1087 Z-0.0864 F15.8842
G1 X-1.0341 Y-0.0963 Z-0.0870 F15.8842
G1 X-1.0372 Y-0.0842 Z-0.0876 F15.8842
G1 X-1.0413 Y-0.0724 Z-0.0882 F15.8842
G1 X-1.0464 Y-0.0610 Z-0.0888 F15.8842
G1 X-1.0525 Y-0.0501 Z-0.0894 F15.8842
G1 X-1.0596 Y-0.0398 Z-0.0900 F15.8842
G1 X-1.0676 Y-0.0301 Z-0.0906 F15.8842
G1 X-1.0764 Y-0.0212 Z-0.0911 F15.8842
G1 X-1.0859 Y-0.0131 Z-0.0917 F15.8842
G1 X-1.0961 Y-0.0059 Z-0.0923 F15.8842
G1 X-1.1069 Y0.0003 Z-0.0929 F15.8842
G1 X-1.1183 Y0.0056 Z-0.0935 F15.8842
G1 X-1.1300 Y0.0098 Z-0.0941 F15.8842
G1 X-1.1421 Y0.0130 Z-0.0947 F15.8842
G1 X-1.1544 Y0.0151 Z-0.0953 F15.8842
G1 X-1.1669 Y0.0161 Z-0.0959 F15.8842
G1 X-1.1793 Y0.0160 Z-0.0965 F15.8842
G1 X-1.1918 Y0.0148 Z-0.0970 F15.8842
G1 X-1.2040 Y0.0124 Z-0.0976 F15.8842
G1 X-1.2160 Y0.0090 Z-0.0982 F15.8842
G1 X-1.2277 Y0.0046 Z-0.0988 F15.8842
G1 X-1.2389 Y-0.0009 Z-0.0994 F15.8842
G1 X-1.2496 Y-0.0074 Z-0.1000 F15.8842
G1 X-1.2596 Y-0.0147 Z-0.1006 F15.8842
G1 X-1.2690 Y-0.0230 Z-0.1012 F15.8842
G1 X-1.2776 Y-0.0320 Z-0.1018 F15.8842
G1 X-1.2853 Y-0.0418 Z-0.1024 F15.8842
G1 X-1.2922 Y-0.0522 Z-0.1030 F15.8842
G1 X-1.2981 Y-0.0632 Z-0.1035 F15.8842
G1 X-1.3030 Y-0.0746 Z-0.1041 F15.8842
G1 X-1.3069 Y-0.0865 Z-0.1047 F15.8842
G1 X-1.3097 Y-0.0986 Z-0.1053 F15.8842
G1 X-1.3114 Y-0.1110 Z-0.1059 F15.8842
G1 X-1.3120 Y-0.1234 Z-0.1065 F15.8842
G1 X-1.3114 Y-0.1358 Z-0.1071 F15.8842
G1 X-1.3098 Y-0.1482 Z-0.1077 F15.8842
G1 X-1.3071 Y-0.1603 Z-0.1083 F15.8842
G1 X-1.3034 Y-0.1722 Z-0.1089 F15.8842
G1 X-1.2985 Y-0.1837 Z-0.1094 F15.8842
G1 X-1.2927 Y-0.1947 Z-0.1100 F15.8842
G1 X-1.2860 Y-0.2051 Z-0.1106 F15.8842
G1 X-1.2783 Y-0.2149 Z-0.1112 F15.8842
G1 X-1.2698 Y-0.2240 Z-0.1118 F15.8842
G1 X-1.2605 Y-0.2323 Z-0.1124 F15.8842
G1 X-1.2505 Y-0.2397 Z-0.1130 F15.8842
G1 X-1.2399 Y-0.2462 Z-0.1136 F15.8842
G1 X-1.2288 Y-0.2518 Z-0.1142 F15.8842
G1 X-1.2172 Y-0.2563 Z-0.1148 F15.8842
G1 X-1.2053 Y-0.2598 Z-0.1154 F15.8842
G1 X-1.1931 Y-0.2622 Z-0.1159 F15.8842
G1 X-1.1808 Y-0.2635 Z-0.1165 F15.8842
G1 X-1.1683 Y-0.2637 Z-0.1171 F15.8842
G1 X-1.1560 Y-0.2628 Z-0.1177 F15.8842
G1 X-1.1437 Y-0.2608 Z-0.1183 F15.8842
G1 X-1.1317 Y-0.2577 Z-0.1189 F15.8842
G1 X-1.1200 Y-0.2536 Z-0.1195 F15.8842
G1 X-1.1087 Y-0.2484 Z-0.1201 F15.8842
G1 X-1.0979 Y-0.2423 Z-0.1207 F15.8842
G1 X-1.0877 Y-0.2352 Z-0.1213 F15.8842
G1 X-1.0782 Y-0.2273 Z-0.1219 F15.8842
G1 X-1.0694 Y-0.2185 Z-0.1224 F15.8842
G1 X-1.0614 Y-0.2090 Z-0.1230 F15.8842
G1 X-1.0543 Y-0.1988 Z-0.1236 F15.8842
G1 X-1.0482 Y-0.1880 Z-0.1242 F15.8842
G1 X-1.0430 Y-0.1768 Z-0.1248 F15.8842
G1 X-1.0389 Y-0.1651 Z-0.1254 F15.8842
G1 X-1.0358 Y-0.1531 Z-0.1260 F15.8842
G1 X-1.0337 Y-0.1409 Z-0.1266 F15.8842
G1 X-1.0328 Y-0.1285 Z-0.1272 F15.8842
G1 X-1.0330 Y-0.1161 Z-0.1278 F15.8842
G1 X-1.0343 Y-0.1038 Z-0.1283 F15.8842
G1 X-1.0367 Y-0.0916 Z-0.1289 F15.8842
G1 X-1.0401 Y-0.0798 Z-0.1295 F15.8842
G1 X-1.0446 Y-0.0682 Z-0.1301 F15.8842
G1 X-1.0501 Y-0.0571 Z-0.1307 F15.8842
G1 X-1.0565 Y-0.0466 Z-0.1313 F15.8842
G1 X-1.0639 Y-0.0366 Z-0.1319 F15.8842
G1 X-1.0721 Y-0.0274 Z-0.1325 F15.8842
G1 X-1.0812 Y-0.0189 Z-0.1331 F15.8842
G1 X-1.0909 Y-0.0112 Z-0.1337 F15.8842
G1 X-1.1012 Y-0.0045 Z-0.1343 F15.8842
G1 X-1.1122 Y0.0013 Z-0.1348 F15.8842
G1 X-1.1236 Y0.0061 Z-0.1354 F15.8842
G1 X-1.1353 Y0.0099 Z-0.1360 F15.8842
G1 X-1.1474 Y0.0126 Z-0.1366 F15.8842
G1 X-1.1597 Y0.0142 Z-0.1372 F15.8842
G1 X-1.1720 Y0.0147 Z-0.1378 F15.8842
G1 X-1.1843 Y0.0142 Z-0.1384 F15.8842
G1 X-1.1966 Y0.0125 Z-0.1390 F15.8842
G1 X-1.2086 Y0.0097 Z-0.1396 F15.8842
G1 X-1.2204 Y0.0059 Z-0.1402 F15.8842
G1 X-1.2317 Y0.0011 Z-0.1407 F15.8842
G1 X-1.2426 Y-0.0047 Z-0.1413 F15.8842
G1 X-1.2529 Y-0.0115 Z-0.1419 F15.8842
G1 X-1.2626 Y-0.0191 Z-0.1425 F15.8842
G1 X-1.2716 Y-0.0276 Z-0.1431 F15.8842
G1 X-1.2798 Y-0.0369 Z-0.1437 F15.8842
G1 X-1.2871 Y-0.0468 Z-0.1443 F15.8842
G1 X-1.2935 Y-0.0574 Z-0.1449 F15.8842
G1 X-1.2989 Y-0.0684 Z-0.1455 F15.8842
G1 X-1.3033 Y-0.0799 Z-0.1461 F15.8842
G1 X-1.3067 Y-0.0918 Z-0.1467 F15.8842
G1 X-1.3090 Y-0.1039 Z-0.1472 F15.8842
G1 X-1.3103 Y-0.1162 Z-0.1478 F15.8842
G1 X-1.3104 Y-0.1285 Z-0.1484 F15.8842
G1 X-1.3095 Y-0.1408 Z-0.1490 F15.8842
G1 X-1.3074 Y-0.1529 Z-0.1496 F15.8842
G1 X-1.3043 Y-0.1648 Z-0.1502 F15.8842
G1 X-1.3002 Y-0.1764 Z-0.1508 F15.8842
G1 X-1.2950 Y-0.1876 Z-0.1514 F15.8842
G1 X-1.2888 Y-0.1983 Z-0.1520 F15.8842
G1 X-1.2818 Y-0.2084 Z-0.1526 F15.8842
G1 X-1.2738 Y-0.2178 Z-0.1531 F15.8842
G1 X-1.2651 Y-0.2264 Z-0.1537 F15.8842
G1 X-1.2556 Y-0.2343 Z-0.1543 F15.8842
G1 X-1.2455 Y-0.2413 Z-0.1549 F15.8842
G1 X-1.2348 Y-0.2473 Z-0.1555 F15.8842
G1 X-1.2236 Y-0.2524 Z-0.1561 F15.8842
G1 X-1.2119 Y-0.2564 Z-0.1567 F15.8842
G1 X-1.2000 Y-0.2595 Z-0.1573 F15.8842
G1 X-1.1879 Y-0.2614 Z-0.1579 F15.8842
G1 X-1.1756 Y-0.2622 Z-0.1585 F15.8842
G1 X-1.1633 Y-0.2620 Z-0.1591 F15.8842
G1 X-1.1511 Y-0.2607 Z-0.1596 F15.8842
G1 X-1.1391 Y-0.2582 Z-0.1602 F15.8842
G1 X-1.1273 Y-0.2548 Z-0.1608 F15.8842
G1 X-1.1159 Y-0.2502 Z-0.1614 F15.8842
G1 X-1.1049 Y-0.2447 Z-0.1620 F15.8842
G1 X-1.0944 Y-0.2383 Z-0.1626 F15.8842
G1 X-1.0846 Y-0.2309 Z-0.1632 F15.8842
G1 X-1.0755 Y-0.2227 Z-0.1638 F15.8842
G1 X-1.0671 Y-0.2137 Z-0.1644 F15.8842
G1 X-1.0596 Y-0.2040 Z-0.1650 F15.8842
G1 X-1.0529 Y-0.1937 Z-0.1656 F15.8842
G1 X-1.0472 Y-0.1828 Z-0.1661 F15.8842
G1 X-1.0425 Y-0.1715 Z-0.1667 F15.8842
G1 X-1.0389 Y-0.1598 Z-0.1673 F15.8842
G1 X-1.0362 Y-0.1478 Z-0.1679 F15.8842
G1 X-1.0347 Y-0.1357 Z-0.1685 F15.8842
G1 X-1.0342 Y-0.1234 Z-0.1691 F15.8842
G1 X-1.0349 Y-0.1112 Z-0.1697 F15.8842
G1 X-1.0366 Y-0.0990 Z-0.1703 F15.8842
G1 X-1.0394 Y-0.0871 Z-0.1709 F15.8842
G1 X-1.0432 Y-0.0755 Z-0.1715 F15.8842
G1 X-1.0481 Y-0.0642 Z-0.1720 F15.8842
G1 X-1.0539 Y-0.0534 Z-0.1726 F15.8842
G1 X-1.0607 Y-0.0432 Z-0.1732 F15.8842
G1 X-1.0683 Y-0.0337 Z-0.1738 F15.8842
G1 X-1.0768 Y-0.0248 Z-0.1744 F15.8842
G1 X-1.0860 Y-0.0168 Z-0.1750 F15.8842
G1 X-1.0959 Y-0.0096 Z-0.1756 F15.8842
G1 X-1.1064 Y-0.0033 Z-0.1762 F15.8842
G1 X-1.1174 Y0.0021 Z-0.1768 F15.8842
G1 X-1.1288 Y0.0064 Z-0.1774 F15.8842
G1 X-1.1406 Y0.0097 Z-0.1780 F15.8842
G1 X-1.1526 Y0.0119 Z-0.1785 F15.8842
G1 X-1.1648 Y0.0131 Z-0.1791 F15.8842
G1 X-1.1770 Y0.0132 Z-0.1797 F15.8842
G1 X-1.1892 Y0.0122 Z-0.1803 F15.8842
G1 X-1.2013 Y0.0101 Z-0.1809 F15.8842
G1 X-1.2131 Y0.0069 Z-0.1815 F15.8842
G1 X-1.2245 Y0.0027 Z-0.1821 F15.8842
G1 X-1.2356 Y-0.0025 Z-0.1827 F15.8842
G1 X-1.2462 Y-0.0086 Z-0.1833 F15.8842
G1 X-1.2561 Y-0.0157 Z-0.1839 F15.8842
G1 X-1.2654 Y-0.0236 Z-0.1844 F15.8842
G1 X-1.2740 Y-0.0323 Z-0.1850 F15.8842
G1 X-1.2817 Y-0.0418 Z-0.1856 F15.8842
G1 X-1.2886 Y-0.0519 Z-0.1862 F15.8842
G1 X-1.2945 Y-0.0625 Z-0.1868 F15.8842
G1 X-1.2995 Y-0.0737 Z-0.1874 F15.8842
G1 X-1.3035 Y-0.0852 Z-0.1880 F15.8842
G1 X-1.3064 Y-0.0970 Z-0.1886 F15.8842
G1 X-1.3082 Y-0.1091 Z-0.1892 F15.8842
G1 X-1.3090 Y-0.1213 Z-0.1898 F15.8842
G1 X-1.3087 Y-0.1335 Z-0.1904 F15.8842
G1 X-1.3073 Y-0.1456 Z-0.1909 F15.8842
G1 X-1.3049 Y-0.1575 Z-0.1915 F15.8842
G1 X-1.3013 Y-0.1692 Z-0.1921 F15.8842
G1 X-1.2968 Y-0.1805 Z-0.1927 F15.8842
G1 X-1.2913 Y-0.1914 Z-0.1933 F15.8842
G1 X-1.2848 Y-0.2017 Z-0.1939 F15.8842
G1 X-1.2775 Y-0.2114 Z-0.1945 F15.8842
G1 X-1.2693 Y-0.2204 Z-0.1951 F15.8842
G1 X-1.2603 Y-0.2287 Z-0.1957 F15.8842
G1 X-1.2507 Y-0.2361 Z-0.1963 F15.8842
G1 X-1.2404 Y-0.2426 Z-0.1969 F15.8842
G1 X-1.2296 Y-0.2482 Z-0.1974 F15.8842
G1 X-1.2183 Y-0.2528 Z-0.1980 F15.8842
G1 X-1.2067 Y-0.2564 Z-0.1986 F15.8842
G1 X-1.1948 Y-0.2589 Z-0.1992 F15.8842
G1 X-1.1827 Y-0.2604 Z-0.1998 F15.8842
G1 X-1.1706 Y-0.2608 Z-0.2004 F15.8842
G1 X-1.1584 Y-0.2601 Z-0.2010 F15.8842
G1 X-1.1464 Y-0.2584 Z-0.2016 F15.8842
G1 X-1.1346 Y-0.2555 Z-0.2022 F15.8842
G1 X-1.1230 Y-0.2517 Z-0.2028 F15.8842
G1 X-1.1119 Y-0.2468 Z-0.2033 F15.8842
G1 X-1.1013 Y-0.2409 Z-0.2039 F15.8842
G1 X-1.0912 Y-0.2342 Z-0.2045 F15.8842
G1 X-1.0817 Y-0.2265 Z-0.2051 F15.8842
G1 X-1.0730 Y-0.2181 Z-0.2057 F15.8842
G1 X-1.0650 Y-0.2089 Z-0.2063 F15.8842
G1 X-1.0579 Y-0.1991 Z-0.2069 F15.8842
G1 X-1.0518 Y-0.1886 Z-0.2075 F15.8842
G1 X-1.0465 Y-0.1777 Z-0.2081 F15.8842
G1 X-1.0423 Y-0.1663 Z-0.2087 F15.8842
G1 X-1.0391 Y-0.1546 Z-0.2093 F15.8842
G1 X-1.0369 Y-0.1426 Z-0.2098 F15.8842
G1 X-1.0358 Y-0.1306 Z-0.2104 F15.8842
G1 X-1.0358 Y-0.1184 Z-0.2110 F15.8842
G1 X-1.0369 Y-0.1063 Z-0.2116 F15.8842
G1 X-1.0390 Y-0.0944 Z-0.2122 F15.8842
G1 X-1.0422 Y-0.0827 Z-0.2128 F15.8842
G1 X-1.0464 Y-0.0713 Z-0.2134 F15.8842
G1 X-1.0516 Y-0.0604 Z-0.2140 F15.8842
G1 X-1.0578 Y-0.0500 Z-0.2146 F15.8842
G1 X-1.0648 Y-0.0401 Z-0.2152 F15.8842
G1 X-1.0728 Y-0.0309 Z-0.2157 F15.8842
G1 X-1.0814 Y-0.0225 Z-0.2163 F15.8842
G1 X-1.0908 Y-0.0149 Z-0.2169 F15.8842
G1 X-1.1009 Y-0.0081 Z-0.2175 F15.8842
G1 X-1.1115 Y-0.0023 Z-0.2181 F15.8842
G1 X-1.1226 Y0.0026 Z-0.2187 F15.8842
G1 X-1.1340 Y0.0065 Z-0.2193 F15.8842
G1 X-1.1458 Y0.0093 Z-0.2199 F15.8842
G1 X-1.1578 Y0.0111 Z-0.2205 F15.8842
G1 X-1.1699 Y0.0118 Z-0.2211 F15.8842
G1 X-1.1820 Y0.0114 Z-0.2217 F15.8842
G1 X-1.1940 Y0.0100 Z-0.2222 F15.8842
G1 X-1.2058 Y0.0075 Z-0.2228 F15.8842
G1 X-1.2174 Y0.0039 Z-0.2234 F15.8842
G1 X-1.2286 Y-0.0006 Z-0.2240 F15.8842
G1 X-1.2393 Y-0.0061 Z-0.2246 F15.8842
G1 X-1.2495 Y-0.0126 Z-0.2252 F15.8842
G1 X-1.2591 Y-0.0200 Z-0.2258 F15.8842
G1 X-1.2680 Y-0.0281 Z-0.2264 F15.8842
G1 X-1.2761 Y-0.0371 Z-0.2270 F15.8842
G1 X-1.2835 Y-0.0467 Z-0.2276 F15.8842
G1 X-1.2899 Y-0.0569 Z-0.2281 F15.8842
G1 X-1.2954 Y-0.0677 Z-0.2287 F15.8842
G1 X-1.2999 Y-0.0789 Z-0.2293 F15.8842
G1 X-1.3034 Y-0.0904 Z-0.2299 F15.8842
G1 X-1.3058 Y-0.1022 Z-0.2305 F15.8842
G1 X-1.3072 Y-0.1142 Z-0.2311 F15.8842
G1 X-1.3076 Y-0.1263 Z-0.2317 F15.8842
G1 X-1.3068 Y-0.1383 Z-0.2323 F15.8842
G1 X-1.3050 Y-0.1502 Z-0.2329 F15.8842
G1 X-1.3021 Y-0.1619 Z-0.2335 F15.8842
G1 X-1.2982 Y-0.1734 Z-0.2341 F15.8842
G1 X-1.2934 Y-0.1844 Z-0.2346 F15.8842
G1 X-1.2875 Y-0.1949 Z-0.2352 F15.8842
G1 X-1.2807 Y-0.2049 Z-0.2358 F15.8842
G1 X-1.2731 Y-0.2142 Z-0.2364 F15.8842
G1 X-1.2647 Y-0.2228 Z-0.2370 F15.8842
G1 X-1.2555 Y-0.2307 Z-0.2376 F15.8842
G1 X-1.2457 Y-0.2377 Z-0.2382 F15.8842
G1 X-1.2353 Y-0.2437 Z-0.2388 F15.8842
G1 X-1.2244 Y-0.2489 Z-0.2394 F15.8842
G1 X-1.2131 Y-0.2530 Z-0.2400 F15.8842
G1 X-1.2015 Y-0.2562 Z-0.2406 F15.8842
G1 X-1.1897 Y-0.2582 Z-0.2411 F15.8842
G1 X-1.1777 Y-0.2593 Z-0.2417 F15.8842
G1 X-1.1656 Y-0.2592 Z-0.2423 F15.8842
G1 X-1.1536 Y-0.2581 Z-0.2429 F15.8842
G1 X-1.1418 Y-0.2559 Z-0.2435 F15.8842
G1 X-1.1302 Y-0.2527 Z-0.2441 F15.8842
G1 X-1.1190 Y-0.2484 Z-0.2447 F15.8842
G1 X-1.1081 Y-0.2432 Z-0.2453 F15.8842
G1 X-1.0978 Y-0.2371 Z-0.2459 F15.8842
G1 X-1.0881 Y-0.2300 Z-0.2465 F15.8842
G1 X-1.0790 Y-0.2221 Z-0.2470 F15.8842
G1 X-1.0707 Y-0.2134 Z-0.2476 F15.8842
G1 X-1.0632 Y-0.2041 Z-0.2482 F15.8842
G1 X-1.0565 Y-0.1941 Z-0.2488 F15.8842
G1 X-1.0508 Y-0.1835 Z-0.2494 F15.8842
G1 X-1.0460 Y-0.1725 Z-0.2500 F15.8842
G1 X-1.0422 Y-0.1611 Z-0.2506 F15.8842
G1 X-1.0395 Y-0.1494 Z-0.2512 F15.8842
G1 X-1.0378 Y-0.1375 Z-0.2518 F15.8842
G1 X-1.0371 Y-0.1256 Z-0.2524 F15.8842
G1 X-1.0376 Y-0.1136 Z-0.2530 F15.8842
G1 X-1.0391 Y-0.1017 Z-0.2535 F15.8842
G1 X-1.0416 Y-0.0899 Z-0.2541 F15.8842
G1 X-1.0452 Y-0.0785 Z-0.2547 F15.8842
G1 X-1.0498 Y-0.0674 Z-0.2553 F15.8842
G1 X-1.0553 Y-0.0568 Z-0.2559 F15.8842
G1 X-1.0618 Y-0.0467 Z-0.2565 F15.8842
G1 X-1.0691 Y-0.0372 Z-0.2571 F15.8842
G1 X-1.0773 Y-0.0284 Z-0.2577 F15.8842
G1 X-1.0862 Y-0.0204 Z-0.2583 F15.8842
G1 X-1.0957 Y-0.0132 Z-0.2589 F15.8842
G1 X-1.1059 Y-0.0069 Z-0.2594 F15.8842
G1 X-1.1166 Y-0.0015 Z-0.2600 F15.8842
G1 X-1.1277 Y0.0030 Z-0.2606 F15.8842
G1 X-1.1392 Y0.0064 Z-0.2612 F15.8842
G1 X-1.1510 Y0.0087 Z-0.2618 F15.8842
G1 X-1.1628 Y0.0101 Z-0.2624 F15.8842
G1 X-1.1748 Y0.0103 Z-0.2630 F15.8842
G1 X-1.1868 Y0.0095 Z-0.2636 F15.8842
G1 X-1.1986 Y0.0077 Z-0.2642 F15.8842
G1 X-1.2102 Y0.0048 Z-0.2648 F15.8842
G1 X-1.2215 Y0.0008 Z-0.2654 F15.8842
G1 X-1.2324 Y-0.0041 Z-0.2659 F15.8842
G1 X-1.2428 Y-0.0099 Z-0.2665 F15.8842
G1 X-1.2527 Y-0.0167 Z-0.2671 F15.8842
G1 X-1.2619 Y-0.0243 Z-0.2677 F15.8842
G1 X-1.2704 Y-0.0327 Z-0.2683 F15.8842
G1 X-1.2781 Y-0.0418 Z-0.2689 F15.8842
G1 X-1.2850 Y-0.0516 Z-0.2695 F15.8842
G1 X-1.2910 Y-0.0619 Z-0.2701 F15.8842
G1 X-1.2960 Y-0.0728 Z-0.2707 F15.8842
G1 X-1.3001 Y-0.0840 Z-0.2713 F15.8842
G1 X-1.3031 Y-0.0956 Z-0.2719 F15.8842
G1 X-1.3051 Y-0.1073 Z-0.2724 F15.8842
G1 X-1.3061 Y-0.1192 Z-0.2730 F15.8842
G1 X-1.3059 Y-0.1312 Z-0.2736 F15.8842
G1 X-1.3048 Y-0.1430 Z-0.2742 F15.8842
G1 X-1.3025 Y-0.1548 Z-0.2748 F15.8842
G1 X-1.2993 Y-0.1662 Z-0.2754 F15.8842
G1 X-1.2950 Y-0.1774 Z-0.2760 F15.8842
G1 X-1.2898 Y-0.1881 Z-0.2766 F15.8842
G1 X-1.2836 Y-0.1983 Z-0.2772 F15.8842
G1 X-1.2766 Y-0.2079 Z-0.2778 F15.8842
G1 X-1.2687 Y-0.2169 Z-0.2783 F15.8842
G1 X-1.2600 Y-0.2251 Z-0.2789 F15.8842
G1 X-1.2507 Y-0.2325 Z-0.2795 F15.8842
G1 X-1.2408 Y-0.2390 Z-0.2801 F15.8842
G1 X-1.2303 Y-0.2447 Z-0.2807 F15.8842
G1 X-1.2193 Y-0.2494 Z-0.2813 F15.8842
G1 X-1.2080 Y-0.2530 Z-0.2819 F15.8842
G1 X-1.1964 Y-0.2557 Z-0.2825 F15.8842
G1 X-1.1846 Y-0.2573 Z-0.2831 F15.8842
G1 X-1.1727 Y-0.2579 Z-0.2837 F15.8842
G1 X-1.1608 Y-0.2574 Z-0.2843 F15.8842
G1 X-1.1490 Y-0.2559 Z-0.2848 F15.8842
G1 X-1.1374 Y-0.2533 Z-0.2854 F15.8842
G1 X-1.1261 Y-0.2497 Z-0.2860 F15.8842
G1 X-1.1151 Y-0.2451 Z-0.2866 F15.8842
G1 X-1.1046 Y-0.2395 Z-0.2872 F15.8842
G1 X-1.0946 Y-0.2331 Z-0.2878 F15.8842
G1 X-1.0852 Y-0.2257 Z-0.2884 F15.8842
G1 X-1.0766 Y-0.2176 Z-0.2890 F15.8842
G1 X-1.0686 Y-0.2087 Z-0.2896 F15.8842
G1 X-1.0615 Y-0.1992 Z-0.2902 F15.8842
G1 X-1.0553 Y-0.1891 Z-0.2907 F15.8842
G1 X-1.0500 Y-0.1784 Z-0.2913 F15.8842
G1 X-1.0457 Y-0.1674 Z-0.2919 F15.8842
G1 X-1.0424 Y-0.1560 Z-0.2925 F15.8842
G1 X-1.0401 Y-0.1443 Z-0.2931 F15.8842
G1 X-1.0388 Y-0.1325 Z-0.2937 F15.8842
G1 X-1.0386 Y-0.1206 Z-0.2943 F15.8842
G1 X-1.0395 Y-0.1088 Z-0.2949 F15.8842
G1 X-1.0414 Y-0.0971 Z-0.2955 F15.8842
G1 X-1.0443 Y-0.0856 Z-0.2961 F15.8842
G1 X-1.0483 Y-0.0744 Z-0.2967 F15.8842
G1 X-1.0532 Y-0.0636 Z-0.2972 F15.8842
G1 X-1.0591 Y-0.0533 Z-0.2978 F15.8842
G1 X-1.0659 Y-0.0436 Z-0.2984 F15.8842
G1 X-1.0735 Y-0.0345 Z-0.2990 F15.8842
G1 X-1.0818 Y-0.0261 Z-0.2996 F15.8842
G1 X-1.0909 Y-0.0185 Z-0.3002 F15.8842
G1 X-1.1006 Y-0.0117 Z-0.3008 F15.8842
G1 X-1.1109 Y-0.0058 Z-0.3014 F15.8842
G1 X-1.1217 Y-0.0009 Z-0.3020 F15.8842
G1 X-1.1329 Y0.0031 Z-0.3026 F15.8842
G1 X-1.1443 Y0.0060 Z-0.3031 F15.8842
G1 X-1.1560 Y0.0080 Z-0.3037 F15.8842
G1 X-1.1678 Y0.0088 Z-0.3043 F15.8842
G1 X-1.1797 Y0.0087 Z-0.3049 F15.8842
G1 X-1.1914 Y0.0074 Z-0.3055 F15.8842
G1 X-1.2030 Y0.0052 Z-0.3061 F15.8842
G1 X-1.2144 Y0.0019 Z-0.3067 F15.8842
G1 X-1.2254 Y-0.0024 Z-0.3073 F15.8842
G1 X-1.2360 Y-0.0077 Z-0.3079 F15.8842
G1 X-1.2461 Y-0.0138 Z-0.3085 F15.8842
G1 X-1.2556 Y-0.0209 Z-0.3091 F15.8842
G1 X-1.2645 Y-0.0287 Z-0.3096 F15.8842
G1 X-1.2726 Y-0.0373 Z-0.3102 F15.8842
G1 X-1.2799 Y-0.0466 Z-0.3108 F15.8842
G1 X-1.2863 Y-0.0565 Z-0.3114 F15.8842
G1 X-1.2918 Y-0.0670 Z-0.3120 F15.8842
G1 X-1.2964 Y-0.0779 Z-0.3126 F15.8842
G1 X-1.3000 Y-0.0891 Z-0.3132 F15.8842
G1 X-1.3026 Y-0.1006 Z-0.3138 F15.8842
G1 X-1.3042 Y-0.1123 Z-0.3144 F15.8842
G1 X-1.3047 Y-0.1241 Z-0.3150 F15.8842
G1 X-1.3041 Y-0.1359 Z-0.3156 F15.8842
G1 X-1.3025 Y-0.1476 Z-0.3161 F15.8842
G1 X-1.2999 Y-0.1591 Z-0.3167 F15.8842
G1 X-1.2963 Y-0.1704 Z-0.3173 F15.8842
G1 X-1.2917 Y-0.1812 Z-0.3179 F15.8842
G1 X-1.2861 Y-0.1916 Z-0.3185 F15.8842
G1 X-1.2796 Y-0.2015 Z-0.3191 F15.8842
G1 X-1.2723 Y-0.2107 Z-0.3197 F15.8842
G1 X-1.2642 Y-0.2193 Z-0.3203 F15.8842
G1 X-1.2554 Y-0.2271 Z-0.3209 F15.8842
G1 X-1.2459 Y-0.2341 Z-0.3215 F15.8842
G1 X-1.2358 Y-0.2402 Z-0.3220 F15.8842
G1 X-1.2252 Y-0.2454 Z-0.3226 F15.8842
G1 X-1.2142 Y-0.2496 Z-0.3232 F15.8842
G1 X-1.2029 Y-0.2529 Z-0.3238 F15.8842
G1 X-1.1913 Y-0.2551 Z-0.3244 F15.8842
G1 X-1.1796 Y-0.2562 Z-0.3250 F15.8842
G1 X-1.1678 Y-0.2564 Z-0.3256 F15.8842
G1 X-1.1561 Y-0.2555 Z-0.3262 F15.8842
G1 X-1.1445 Y-0.2535 Z-0.3268 F15.8842
G1 X-1.1331 Y-0.2505 Z-0.3274 F15.8842
G1 X-1.1220 Y-0.2466 Z-0.3280 F15.8842
G1 X-1.1114 Y-0.2416 Z-0.3285 F15.8842
G1 X-1.1012 Y-0.2357 Z-0.3291 F15.8842
G1 X-1.0915 Y-0.2290 Z-0.3297 F15.8842
G1 X-1.0826 Y-0.2214 Z-0.3303 F15.8842
G1 X-1.0743 Y-0.2131 Z-0.3309 F15.8842
G1 X-1.0668 Y-0.2040 Z-0.3315 F15.8842
G1 X-1.0601 Y-0.1943 Z-0.3321 F15.8842
G1 X-1.0543 Y-0.1841 Z-0.3327 F15.8842
G1 X-1.0495 Y-0.1734 Z-0.3333 F15.8842
G1 X-1.0456 Y-0.1623 Z-0.3339 F15.8842
G1 X-1.0427 Y-0.1509 Z-0.3344 F15.8842
G1 X-1.0409 Y-0.1393 Z-0.3350 F15.8842
G1 X-1.0401 Y-0.1276 Z-0.3356 F15.8842
G1 X-1.0403 Y-0.1159 Z-0.3362 F15.8842
G1 X-1.0416 Y-0.1042 Z-0.3368 F15.8842
G1 X-1.0439 Y-0.0927 Z-0.3374 F15.8842
G1 X-1.0472 Y-0.0814 Z-0.3380 F15.8842
G1 X-1.0515 Y-0.0705 Z-0.3386 F15.8842
G1 X-1.0568 Y-0.0600 Z-0.3392 F15.8842
G1 X-1.0630 Y-0.0500 Z-0.3398 F15.8842
G1 X-1.0700 Y-0.0407 Z-0.3404 F15.8842
G1 X-1.0778 Y-0.0319 Z-0.3409 F15.8842
G1 X-1.0864 Y-0.0240 Z-0.3415 F15.8842
G1 X-1.0957 Y-0.0168 Z-0.3421 F15.8842
G1 X-1.1055 Y-0.0104 Z-0.3427 F15.8842
G1 X-1.1159 Y-0.0050 Z-0.3433 F15.8842
G1 X-1.1267 Y-0.0005 Z-0.3439 F15.8842
G1 X-1.1379 Y0.0030 Z-0.3445 F15.8842
G1 X-1.1494 Y0.0055 Z-0.3451 F15.8842
G1 X-1.1610 Y0.0070 Z-0.3457 F15.8842
G1 X-1.1727 Y0.0074 Z-0.3463 F15.8842
G1 X-1.1844 Y0.0068 Z-0.3469 F15.8842
G1 X-1.1960 Y0.0052 Z-0.3474 F15.8842
G1 X-1.2074 Y0.0025 Z-0.3480 F15.8842
G1 X-1.2185 Y-0.0011 Z-0.3486 F15.8842
G1 X-1.2292 Y-0.0058 Z-0.3492 F15.8842
G1 X-1.2395 Y-0.0113 Z-0.3498 F15.8842
G1 X-1.2493 Y-0.0178 Z-0.3504 F15.8842
G1 X-1.2584 Y-0.0251 Z-0.3510 F15.8842
G1 X-1.2668 Y-0.0332 Z-0.3516 F15.8842
G1 X-1.2745 Y-0.0420 Z-0.3522 F15.8842
G1 X-1.2814 Y-0.0514 Z-0.3528 F15.8842
G1 X-1.2874 Y-0.0615 Z-0.3533 F15.8842
G1 X-1.2925 Y-0.0720 Z-0.3539 F15.8842
G1 X-1.2967 Y-0.0829 Z-0.3545 F15.8842
G1 X-1.2998 Y-0.0942 Z-0.3551 F15.8842
G1 X-1.3019 Y-0.1056 Z-0.3557 F15.8842
G1 X-1.3031 Y-0.1173 Z-0.3563 F15.8842
G1 X-1.3031 Y-0.1289 Z-0.3569 F15.8842
G1 X-1.3022 Y-0.1406 Z-0.3575 F15.8842
G1 X-1.3002 Y-0.1521 Z-0.3581 F15.8842
G1 X-1.2972 Y-0.1634 Z-0.3587 F15.8842
G1 X-1.2931 Y-0.1743 Z-0.3593 F15.8842
G1 X-1.2882 Y-0.1849 Z-0.3598 F15.8842
G1 X-1.2823 Y-0.1950 Z-0.3604 F15.8842
G1 X-1.2756 Y-0.2045 Z-0.3610 F15.8842
G1 X-1.2680 Y-0.2133 Z-0.3616 F15.8842
G1 X-1.2597 Y-0.2215 Z-0.3622 F15.8842
G1 X-1.2507 Y-0.2289 Z-0.3628 F15.8842
G1 X-1.2410 Y-0.2355 Z-0.3634 F15.8842
G1 X-1.2308 Y-0.2411 Z-0.3640 F15.8842
G1 X-1.2202 Y-0.2459 Z-0.3646 F15.8842
G1 X-1.2092 Y-0.2497 Z-0.3652 F15.8842
G1 X-1.1979 Y-0.2525 Z-0.3657 F15.8842
G1 X-1.1864 Y-0.2542 Z-0.3663 F15.8842
G1 X-1.1747 Y-0.2550 Z-0.3669 F15.8842
G1 X-1.1631 Y-0.2547 Z-0.3675 F15.8842
G1 X-1.1515 Y-0.2534 Z-0.3681 F15.8842
G1 X-1.1401 Y-0.2510 Z-0.3687 F15.8842
G1 X-1.1290 Y-0.2476 Z-0.3693 F15.8842
G1 X-1.1182 Y-0.2433 Z-0.3699 F15.8842
G1 X-1.1078 Y-0.2380 Z-0.3705 F15.8842
G1 X-1.0980 Y-0.2319 Z-0.3711 F15.8842
G1 X-1.0887 Y-0.2248 Z-0.3717 F15.8842
G1 X-1.0801 Y-0.2170 Z-0.3722 F15.8842
G1 X-1.0722 Y-0.2085 Z-0.3728 F15.8842
G1 X-1.0651 Y-0.1993 Z-0.3734 F15.8842
G1 X-1.0589 Y-0.1894 Z-0.3740 F15.8842
G1 X-1.0535 Y-0.1791 Z-0.3746 F15.8842
G1 X-1.0491 Y-0.1684 Z-0.3752 F15.8842
G1 X-1.0457 Y-0.1573 Z-0.3758 F15.8842
G1 X-1.0433 Y-0.1459 Z-0.3764 F15.8842
G1 X-1.0419 Y-0.1344 Z-0.3770 F15.8842
G1 X-1.0415 Y-0.1228 Z-0.3776 F15.8842
G1 X-1.0422 Y-0.1112 Z-0.3781 F15.8842
G1 X-1.0439 Y-0.0997 Z-0.3787 F15.8842
G1 X-1.0466 Y-0.0884 Z-0.3793 F15.8842
G1 X-1.0502 Y-0.0774 Z-0.3799 F15.8842
G1 X-1.0549 Y-0.0668 Z-0.3805 F15.8842
G1 X-1.0605 Y-0.0566 Z-0.3811 F15.8842
G1 X-1.0669 Y-0.0470 Z-0.3817 F15.8842
G1 X-1.0742 Y-0.0380 Z-0.3823 F15.8842
G1 X-1.0823 Y-0.0296 Z-0.3829 F15.8842
G1 X-1.0911 Y-0.0220 Z-0.3835 F15.8842
G1 X-1.1005 Y-0.0153 Z-0.3841 F15.8842
G1 X-1.1104 Y-0.0094 Z-0.3846 F15.8842
G1 X-1.1209 Y-0.0044 Z-0.3852 F15.8842
G1 X-1.1318 Y-0.0003 Z-0.3858 F15.8842
G1 X-1.1429 Y0.0028 Z-0.3864 F15.8842
G1 X-1.1543 Y0.0048 Z-0.3870 F15.8842
G1 X-1.1659 Y0.0059 Z-0.3876 F15.8842
G1 X-1.1774 Y0.0059 Z-0.3882 F15.8842
G1 X-1.1890 Y0.0049 Z-0.3888 F15.8842
G1 X-1.2004 Y0.0028 Z-0.3894 F15.8842
G1 X-1.2115 Y-0.0002 Z-0.3900 F15.8842
G1 X-1.2224 Y-0.0043 Z-0.3906 F15.8842
G1 X-1.2328 Y-0.0092 Z-0.3911 F15.8842
G1 X-1.2428 Y-0.0151 Z-0.3917 F15.8842
G1 X-1.2522 Y-0.0219 Z-0.3923 F15.8842
G1 X-1.2610 Y-0.0294 Z-0.3929 F15.8842
G1 X-1.2690 Y-0.0377 Z-0.3935 F15.8842
G1 X-1.2763 Y-0.0467 Z-0.3941 F15.8842
G1 X-1.2828 Y-0.0563 Z-0.3947 F15.8842
G1 X-1.2883 Y-0.0664 Z-0.3953 F15.8842
G1 X-1.2930 Y-0.0770 Z-0.3959 F15.8842
G1 X-1.2967 Y-0.0879 Z-0.3965 F15.8842
G1 X-1.2994 Y-0.0991 Z-0.3970 F15.8842
G1 X-1.3011 Y-0.1106 Z-0.3976 F15.8842
G1 X-1.3018 Y-0.1221 Z-0.3982 F15.8842
G1 X-1.3014 Y-0.1336 Z-0.3988 F15.8842
G1 X-1.3000 Y-0.1451 Z-0.3994 F15.8842
G1 X-1.2976 Y-0.1564 Z-0.4000 F15.8842
G1 X-1.2942 Y-0.1674 Z-0.4006 F15.8842
G1 X-1.2899 Y-0.1781 Z-0.4012 F15.8842
G1 X-1.2846 Y-0.1884 Z-0.4018 F15.8842
G1 X-1.2784 Y-0.1981 Z-0.4024 F15.8842
G1 X-1.2714 Y-0.2073 Z-0.4030 F15.8842
G1 X-1.2636 Y-0.2158 Z-0.4035 F15.8842
G1 X-1.2551 Y-0.2235 Z-0.4041 F15.8842
G1 X-1.2459 Y-0.2305 Z-0.4047 F15.8842
G1 X-1.2362 Y-0.2366 Z-0.4053 F15.8842
G1 X-1.2259 Y-0.2419 Z-0.4059 F15.8842
G1 X-1.2152 Y-0.2462 Z-0.4065 F15.8842
G1 X-1.2042 Y-0.2495 Z-0.4071 F15.8842
G1 X-1.1929 Y-0.2519 Z-0.4077 F15.8842
G1 X-1.1815 Y-0.2532 Z-0.4083 F15.8842
G1 X-1.1700 Y-0.2535 Z-0.4089 F15.8842
G1 X-1.1585 Y-0.2528 Z-0.4094 F15.8842
G1 X-1.1471 Y-0.2511 Z-0.4100 F15.8842
G1 X-1.1359 Y-0.2483 Z-0.4106 F15.8842
G1 X-1.1250 Y-0.2446 Z-0.4112 F15.8842
G1 X-1.1145 Y-0.2400 Z-0.4118 F15.8842
G1 X-1.1045 Y-0.2344 Z-0.4124 F15.8842
G1 X-1.0949 Y-0.2279 Z-0.4130 F15.8842
G1 X-1.0860 Y-0.2206 Z-0.4136 F15.8842
G1 X-1.0778 Y-0.2126 Z-0.4142 F15.8842
G1 X-1.0703 Y-0.2039 Z-0.4148 F15.8842
G1 X-1.0637 Y-0.1945 Z-0.4154 F15.8842
G1 X-1.0579 Y-0.1846 Z-0.4159 F15.8842
G1 X-1.0530 Y-0.1742 Z-0.4165 F15.8842
G1 X-1.0490 Y-0.1634 Z-0.4171 F15.8842
G1 X-1.0460 Y-0.1523 Z-0.4177 F15.8842
G1 X-1.0440 Y-0.1410 Z-0.4183 F15.8842
G1 X-1.0431 Y-0.1295 Z-0.4189 F15.8842
G1 X-1.0431 Y-0.1181 Z-0.4195 F15.8842
G1 X-1.0442 Y-0.1066 Z-0.4201 F15.8842
G1 X-1.0463 Y-0.0953 Z-0.4207 F15.8842
G1 X-1.0493 Y-0.0843 Z-0.4213 F15.8842
G1 X-1.0534 Y-0.0735 Z-0.4219 F15.8842
G1 X-1.0584 Y-0.0632 Z-0.4224 F15.8842
G1 X-1.0643 Y-0.0534 Z-0.4230 F15.8842
G1 X-1.0710 Y-0.0441 Z-0.4236 F15.8842
G1 X-1.0785 Y-0.0354 Z-0.4242 F15.8842
G1 X-1.0868 Y-0.0275 Z-0.4248 F15.8842
G1 X-1.0957 Y-0.0203 Z-0.4254 F15.8842
G1 X-1.1053 Y-0.0140 Z-0.4260 F15.8842
G1 X-1.1153 Y-0.0085 Z-0.4266 F15.8842
G1 X-1.1259 Y-0.0039 Z-0.4272 F15.8842
G1 X-1.1367 Y-0.0003 Z-0.4278 F15.8842
G1 X-1.1479 Y0.0023 Z-0.4283 F15.8842
G1 X-1.1592 Y0.0039 Z-0.4289 F15.8842
G1 X-1.1707 Y0.0045 Z-0.4295 F15.8842
G1 X-1.1821 Y0.0041 Z-0.4301 F15.8842
G1 X-1.1935 Y0.0027 Z-0.4307 F15.8842
G1 X-1.2046 Y0.0003 Z-0.4313 F15.8842
G1 X-1.2156 Y-0.0031 Z-0.4319 F15.8842
G1 X-1.2261 Y-0.0075 Z-0.4325 F15.8842
G1 X-1.2363 Y-0.0128 Z-0.4331 F15.8842
G1 X-1.2459 Y-0.0190 Z-0.4337 F15.8842
G1 X-1.2549 Y-0.0260 Z-0.4343 F15.8842
G1 X-1.2633 Y-0.0338 Z-0.4348 F15.8842
G1 X-1.2710 Y-0.0422 Z-0.4354 F15.8842
G1 X-1.2779 Y-0.0514 Z-0.4360 F15.8842
G1 X-1.2839 Y-0.0611 Z-0.4366 F15.8842
G1 X-1.2890 Y-0.0713 Z-0.4372 F15.8842
G1 X-1.2932 Y-0.0819 Z-0.4378 F15.8842
G1 X-1.2965 Y-0.0929 Z-0.4384 F15.8842
G1 X-1.2988 Y-0.1041 Z-0.4390 F15.8842
G1 X-1.3000 Y-0.1154 Z-0.4396 F15.8842
G1 X-1.3003 Y-0.1268 Z-0.4402 F15.8842
G1 X-1.2995 Y-0.1382 Z-0.4407 F15.8842
G1 X-1.2977 Y-0.1495 Z-0.4413 F15.8842
G1 X-1.2950 Y-0.1606 Z-0.4419 F15.8842
G1 X-1.2912 Y-0.1713 Z-0.4425 F15.8842
G1 X-1.2865 Y-0.1817 Z-0.4431 F15.8842
G1 X-1.2809 Y-0.1917 Z-0.4437 F15.8842
G1 X-1.2745 Y-0.2011 Z-0.4443 F15.8842
G1 X-1.2672 Y-0.2099 Z-0.4449 F15.8842
G1 X-1.2592 Y-0.2180 Z-0.4455 F15.8842
G1 X-1.2505 Y-0.2254 Z-0.4461 F15.8842
G1 X-1.2412 Y-0.2319 Z-0.4467 F15.8842
G1 X-1.2313 Y-0.2376 Z-0.4472 F15.8842
G1 X-1.2210 Y-0.2424 Z-0.4478 F15.8842
G1 X-1.2103 Y-0.2463 Z-0.4484 F15.8842
G1 X-1.1993 Y-0.2492 Z-0.4490 F15.8842
G1 X-1.1880 Y-0.2511 Z-0.4496 F15.8842
G1 X-1.1767 Y-0.2520 Z-0.4502 F15.8842
G1 X-1.1653 Y-0.2519 Z-0.4508 F15.8842
G1 X-1.1540 Y-0.2508 Z-0.4514 F15.8842
G1 X-1.1428 Y-0.2487 Z-0.4520 F15.8842
G1 X-1.1318 Y-0.2455 Z-0.4526 F15.8842
G1 X-1.1212 Y-0.2415 Z-0.4531 F15.8842
G1 X-1.1110 Y-0.2365 Z-0.4537 F15.8842
G1 X-1.1013 Y-0.2306 Z-0.4543 F15.8842
G1 X-1.0921 Y-0.2239 Z-0.4549 F15.8842
G1 X-1.0836 Y-0.2164 Z-0.4555 F15.8842
G1 X-1.0757 Y-0.2081 Z-0.4561 F15.8842
G1 X-1.0687 Y-0.1992 Z-0.4567 F15.8842
G1 X-1.0624 Y-0.1897 Z-0.4573 F15.8842
G1 X-1.0570 Y-0.1797 Z-0.4579 F15.8842
G1 X-1.0526 Y-0.1693 Z-0.4585 F15.8842
G1 X-1.0491 Y-0.1585 Z-0.4591 F15.8842
G1 X-1.0465 Y-0.1474 Z-0.4596 F15.8842
G1 X-1.0450 Y-0.1361 Z-0.4602 F15.8842
G1 X-1.0444 Y-0.1248 Z-0.4608 F15.8842
G1 X-1.0449 Y-0.1135 Z-0.4614 F15.8842
G1 X-1.0464 Y-0.1022 Z-0.4620 F15.8842
G1 X-1.0488 Y-0.0911 Z-0.4626 F15.8842
G1 X-1.0523 Y-0.0803 Z-0.4632 F15.8842
G1 X-1.0566 Y-0.0699 Z-0.4638 F15.8842
G1 X-1.0619 Y-0.0598 Z-0.4644 F15.8842
G1 X-1.0681 Y-0.0503 Z-0.4650 F15.8842
G1 X-1.0751 Y-0.0414 Z-0.4656 F15.8842
G1 X-1.0829 Y-0.0331 Z-0.4661 F15.8842
G1 X-1.0913 Y-0.0256 Z-0.4667 F15.8842
G1 X-1.1004 Y-0.0188 Z-0.4673 F15.8842
G1 X-1.1101 Y-0.0129 Z-0.4679 F15.8842
G1 X-1.1202 Y-0.0078 Z-0.4685 F15.8842
G1 X-1.1308 Y-0.0037 Z-0.4691 F15.8842
G1 X-1.1416 Y-0.0005 Z-0.4697 F15.8842
G1 X-1.1527 Y0.0017 Z-0.4703 F15.8842
G1 X-1.1640 Y0.0028 Z-0.4709 F15.8842
G1 X-1.1753 Y0.0030 Z-0.4715 F15.8842
G1 X-1.1866 Y0.0022 Z-0.4720 F15.8842
G1 X-1.1978 Y0.0004 Z-0.4726 F15.8842
G1 X-1.2087 Y-0.0024 Z-0.4732 F15.8842
G1 X-1.2194 Y-0.0062 Z-0.4738 F15.8842
G1 X-1.2297 Y-0.0109 Z-0.4744 F15.8842
G1 X-1.2395 Y-0.0165 Z-0.4750 F15.8842
G1 X-1.2488 Y-0.0229 Z-0.4756 F15.8842
G1 X-1.2575 Y-0.0302 Z-0.4762 F15.8842
G1 X-1.2655 Y-0.0382 Z-0.4768 F15.8842
G1 X-1.2728 Y-0.0468 Z-0.4774 F15.8842
G1 X-1.2792 Y-0.0561 Z-0.4780 F15.8842
G1 X-1.2848 Y-0.0659 Z-0.4785 F15.8842
G1 X-1.2895 Y-0.0762 Z-0.4791 F15.8842
G1 X-1.2933 Y-0.0868 Z-0.4797 F15.8842
G1 X-1.2961 Y-0.0978 Z-0.4803 F15.8842
G1 X-1.2980 Y-0.1089 Z-0.4809 F15.8842
G1 X-1.2988 Y-0.1202 Z-0.4815 F15.8842
G1 X-1.2986 Y-0.1314 Z-0.4821 F15.8842
G1 X-1.2975 Y-0.1427 Z-0.4827 F15.8842
G1 X-1.2953 Y-0.1537 Z-0.4833 F15.8842
G1 X-1.2922 Y-0.1646 Z-0.4839 F15.8842
G1 X-1.2881 Y-0.1751 Z-0.4844 F15.8842
G1 X-1.2831 Y-0.1852 Z-0.4850 F15.8842
G1 X-1.2772 Y-0.1948 Z-0.4856 F15.8842
G1 X-1.2705 Y-0.2039 Z-0.4862 F15.8842
G1 X-1.2630 Y-0.2123 Z-0.4868 F15.8842
G1 X-1.2548 Y-0.2200 Z-0.4874 F15.8842
G1 X-1.2459 Y-0.2270 Z-0.4880 F15.8842
G1 X-1.2365 Y-0.2331 Z-0.4886 F15.8842
G1 X-1.2265 Y-0.2384 Z-0.4892 F15.8842
G1 X-1.2161 Y-0.2428 Z-0.4898 F15.8842
G3 X-1.1279 Y-0.0055 Z-0.4902 I0.0441 J0.1186 F31.7683
G3 X-1.2161 Y-0.2428 Z-0.4902 I-0.0441 J-0.1186 F31.7683
(Adaptive - depth: -12.450000)
G1 X-1.1720 Y-0.2648 F31.7683
G1 X-1.1705 Y-0.2661 F31.7683
G1 X-1.1694 Y-0.2677 F31.7683
G1 X-1.1644 Y-0.2709 F31.7683
G1 X-1.1531 Y-0.2747 F31.7683
G1 X-1.1353 Y-0.2769 F31.7683
G1 X-1.1255 Y-0.2767 F31.7683
G1 X-1.1099 Y-0.2745 F31.7683
G1 X-1.0946 Y-0.2704 F31.7683
G1 X-1.0848 Y-0.2666 F31.7683
G1 X-1.0766 Y-0.2628 F31.7683
G1 X-1.0669 Y-0.2571 F31.7683
G1 X-1.0573 Y-0.2505 F31.7683
G1 X-1.0479 Y-0.2427 F31.7683
G1 X-1.0394 Y-0.2345 F31.7683
G1 X-1.0315 Y-0.2255 F31.7683
G1 X-1.0245 Y-0.2159 F31.7683
G1 X-1.0182 Y-0.2058 F31.7683
G1 X-1.0125 Y-0.1954 F31.7683
G1 X-1.0069 Y-0.1822 F31.7683
G1 X-1.0027 Y-0.1703 F31.7683
G1 X-0.9994 Y-0.1578 F31.7683
G1 X-0.9969 Y-0.1448 F31.7683
G1 X-0.9956 Y-0.1320 F31.7683
G1 X-0.9951 Y-0.1191 F31.7683
G1 X-0.9957 Y-0.1062 F31.7683
G1 X-0.9972 Y-0.0933 F31.7683
G1 X-0.9996 Y-0.0806 F31.7683
G1 X-1.0031 Y-0.0680 F31.7683
G1 X-1.0075 Y-0.0559 F31.7683
G1 X-1.0128 Y-0.0440 F31.7683
G1 X-1.0189 Y-0.0326 F31.7683
G1 X-1.0260 Y-0.0218 F31.7683
G1 X-1.0337 Y-0.0114 F31.7683
G1 X-1.0423 Y-0.0017 F31.7683
G1 X-1.0516 Y0.0071 F31.7683
G1 X-1.0613 Y0.0155 F31.7683
G1 X-1.0737 Y0.0246 F31.7683
G1 X-1.0851 Y0.0319 F31.7683
G1 X-1.0973 Y0.0384 F31.7683
G1 X-1.1105 Y0.0436 F31.7683
G1 X-1.1204 Y0.0469 F31.7683
G1 X-1.1328 Y0.0498 F31.7683
G1 X-1.1448 Y0.0520 F31.7683
G1 X-1.1602 Y0.0536 F31.7683
G1 X-1.1735 Y0.0540 F31.7683
G1 X-1.1870 Y0.0535 F31.7683
G1 X-1.2010 Y0.0519 F31.7683
G1 X-1.2144 Y0.0490 F31.7683
G1 X-1.2250 Y0.0460 F31.7683
G1 X-1.2370 Y0.0416 F31.7683
G1 X-1.2483 Y0.0367 F31.7683
G1 X-1.2616 Y0.0295 F31.7683
G1 X-1.2729 Y0.0224 F31.7683
G1 X-1.2838 Y0.0144 F31.7683
G1 X-1.2945 Y0.0053 F31.7683
G1 X-1.3039 Y-0.0046 F31.7683
G1 X-1.3109 Y-0.0128 F31.7683
G1 X-1.3182 Y-0.0230 F31.7683
G1 X-1.3247 Y-0.0333 F31.7683
G1 X-1.3318 Y-0.0470 F31.7683
G1 X-1.3371 Y-0.0592 F31.7683
G1 X-1.3418 Y-0.0720 F31.7683
G1 X-1.3455 Y-0.0855 F31.7683
G1 X-1.3482 Y-0.0988 F31.7683
G1 X-1.3499 Y-0.1123 F31.7683
G1 X-1.3501 Y-0.1261 F31.7683
G1 X-1.3497 Y-0.1368 F31.7683
G1 X-1.3481 Y-0.1494 F31.7683
G1 X-1.3458 Y-0.1614 F31.7683
G1 X-1.3420 Y-0.1757 F31.7683
G1 X-1.3377 Y-0.1881 F31.7683
G1 X-1.3326 Y-0.2003 F31.7683
G1 X-1.3263 Y-0.2124 F31.7683
G1 X-1.3193 Y-0.2238 F31.7683
G1 X-1.3114 Y-0.2347 F31.7683
G1 X-1.3027 Y-0.2451 F31.7683
G1 X-1.2933 Y-0.2547 F31.7683
G1 X-1.2832 Y-0.2637 F31.7683
G1 X-1.2725 Y-0.2719 F31.7683
G1 X-1.2612 Y-0.2794 F31.7683
G1 X-1.2496 Y-0.2864 F31.7683
G1 X-1.2357 Y-0.2939 F31.7683
G1 X-1.2213 Y-0.3003 F31.7683
G1 X-1.2067 Y-0.3061 F31.7683
G1 X-1.1916 Y-0.3105 F31.7683
G1 X-1.1785 Y-0.3136 F31.7683
G1 X-1.1630 Y-0.3157 F31.7683
G1 X-1.1513 Y-0.3166 F31.7683
G1 X-1.1379 Y-0.3166 F31.7683
G1 X-1.1246 Y-0.3157 F31.7683
G1 X-1.1095 Y-0.3136 F31.7683
G1 X-1.0958 Y-0.3108 F31.7683
G1 X-1.0823 Y-0.3065 F31.7683
G1 X-1.0720 Y-0.3024 F31.7683
G1 X-1.0604 Y-0.2968 F31.7683
G1 X-1.0493 Y-0.2906 F31.7683
G1 X-1.0368 Y-0.2822 F31.7683
G1 X-1.0261 Y-0.2740 F31.7683
G1 X-1.0159 Y-0.2650 F31.7683
G1 X-1.0062 Y-0.2549 F31.7683
G1 X-0.9973 Y-0.2445 F31.7683
G1 X-0.9892 Y-0.2334 F31.7683
G1 X-0.9818 Y-0.2216 F31.7683
G1 X-0.9754 Y-0.2094 F31.7683
G1 X-0.9699 Y-0.1969 F31.7683
G1 X-0.9652 Y-0.1839 F31.7683
G1 X-0.9611 Y-0.1708 F31.7683
G1 X-0.9577 Y-0.1553 F31.7683
G1 X-0.9555 Y-0.1409 F31.7683
G1 X-0.9541 Y-0.1261 F31.7683
G1 X-0.9537 Y-0.1110 F31.7683
G1 X-0.9550 Y-0.0962 F31.7683
G1 X-0.9564 Y-0.0849 F31.7683
G1 X-0.9593 Y-0.0717 F31.7683
G1 X-0.9627 Y-0.0591 F31.7683
G1 X-0.9680 Y-0.0442 F31.7683
G1 X-0.9737 Y-0.0311 F31.7683
G1 X-0.9802 Y-0.0183 F31.7683
G1 X-0.9879 Y-0.0055 F31.7683
G1 X-0.9959 Y0.0064 F31.7683
G1 X-1.0057 Y0.0187 F31.7683
G1 X-1.0160 Y0.0303 F31.7683
G1 X-1.0271 Y0.0413 F31.7683
G1 X-1.0392 Y0.0512 F31.7683
G1 X-1.0487 Y0.0582 F31.7683
G1 X-1.0609 Y0.0658 F31.7683
G1 X-1.0732 Y0.0722 F31.7683
G1 X-1.0851 Y0.0779 F31.7683
G1 X-1.0998 Y0.0833 F31.7683
G1 X-1.1136 Y0.0875 F31.7683
G1 X-1.1277 Y0.0908 F31.7683
G1 X-1.1427 Y0.0933 F31.7683
G1 X-1.1574 Y0.0946 F31.7683
G1 X-1.1721 Y0.0951 F31.7683
G1 X-1.1870 Y0.0946 F31.7683
G1 X-1.2018 Y0.0931 F31.7683
G1 X-1.2164 Y0.0907 F31.7683
G1 X-1.2308 Y0.0872 F31.7683
G1 X-1.2450 Y0.0828 F31.7683
G1 X-1.2589 Y0.0775 F31.7683
G1 X-1.2724 Y0.0714 F31.7683
G1 X-1.2854 Y0.0642 F31.7683
G1 X-1.2980 Y0.0563 F31.7683
G1 X-1.3097 Y0.0471 F31.7683
G1 X-1.3183 Y0.0395 F31.7683
G1 X-1.3279 Y0.0300 F31.7683
G1 X-1.3382 Y0.0185 F31.7683
G1 X-1.3479 Y0.0060 F31.7683
G1 X-1.3567 Y-0.0064 F31.7683
G1 X-1.3649 Y-0.0197 F31.7683
G1 X-1.3722 Y-0.0336 F31.7683
G1 X-1.3778 Y-0.0482 F31.7683
G1 X-1.3813 Y-0.0584 F31.7683
G1 X-1.3848 Y-0.0717 F31.7683
G1 X-1.3879 Y-0.0869 F31.7683
G1 X-1.3900 Y-0.1024 F31.7683
G1 X-1.3911 Y-0.1174 F31.7683
G1 X-1.3912 Y-0.1330 F31.7683
G1 X-1.3904 Y-0.1486 F31.7683
G1 X-1.3877 Y-0.1640 F31.7683
G1 X-1.3853 Y-0.1743 F31.7683
G1 X-1.3818 Y-0.1874 F31.7683
G1 X-1.3767 Y-0.2023 F31.7683
G1 X-1.3707 Y-0.2168 F31.7683
G1 X-1.3639 Y-0.2309 F31.7683
G1 X-1.3556 Y-0.2442 F31.7683
G1 X-1.3490 Y-0.2537 F31.7683
G1 X-1.3403 Y-0.2651 F31.7683
G1 X-1.3300 Y-0.2771 F31.7683
G1 X-1.3189 Y-0.2883 F31.7683
G1 X-1.3072 Y-0.2988 F31.7683
G1 X-1.2949 Y-0.3087 F31.7683
G1 X-1.2821 Y-0.3178 F31.7683
G1 X-1.2688 Y-0.3262 F31.7683
G1 X-1.2550 Y-0.3338 F31.7683
G1 X-1.2408 Y-0.3406 F31.7683
G1 X-1.2261 Y-0.3465 F31.7683
G1 X-1.2112 Y-0.3515 F31.7683
G1 X-1.1959 Y-0.3549 F31.7683
G1 X-1.1842 Y-0.3570 F31.7683
G1 X-1.1694 Y-0.3586 F31.7683
G1 X-1.1553 Y-0.3595 F31.7683
G1 X-1.1395 Y-0.3594 F31.7683
G1 X-1.1239 Y-0.3583 F31.7683
G1 X-1.1081 Y-0.3563 F31.7683
G1 X-1.0926 Y-0.3533 F31.7683
G1 X-1.0773 Y-0.3494 F31.7683
G1 X-1.0624 Y-0.3440 F31.7683
G1 X-1.0513 Y-0.3393 F31.7683
G1 X-1.0384 Y-0.3327 F31.7683
G1 X-1.0262 Y-0.3258 F31.7683
G1 X-1.0130 Y-0.3169 F31.7683
G1 X-1.0009 Y-0.3076 F31.7683
G1 X-0.9889 Y-0.2974 F31.7683
G1 X-0.9776 Y-0.2863 F31.7683
G1 X-0.9670 Y-0.2746 F31.7683
G1 X-0.9571 Y-0.2623 F31.7683
G1 X-0.9480 Y-0.2494 F31.7683
G1 X-0.9401 Y-0.2356 F31.7683
G1 X-0.9344 Y-0.2244 F31.7683
G1 X-0.9284 Y-0.2111 F31.7683
G1 X-0.9227 Y-0.1964 F31.7683
G1 X-0.9181 Y-0.1812 F31.7683
G1 X-0.9141 Y-0.1658 F31.7683
G1 X-0.9117 Y-0.1502 F31.7683
G1 X-0.9102 Y-0.1373 F31.7683
G1 X-0.9096 Y-0.1219 F31.7683
G1 X-0.9101 Y-0.1069 F31.7683
G1 X-0.9110 Y-0.0925 F31.7683
G1 X-0.9134 Y-0.0769 F31.7683
G1 X-0.9166 Y-0.0615 F31.7683
G1 X-0.9206 Y-0.0463 F31.7683
G1 X-0.9257 Y-0.0314 F31.7683
G1 X-0.9317 Y-0.0167 F31.7683
G1 X-0.9386 Y-0.0025 F31.7683
G1 X-0.9460 Y0.0114 F31.7683
G1 X-0.9542 Y0.0247 F31.7683
G1 X-0.9632 Y0.0375 F31.7683
G1 X-0.9728 Y0.0500 F31.7683
G1 X-0.9831 Y0.0618 F31.7683
G1 X-0.9945 Y0.0726 F31.7683
G1 X-1.0044 Y0.0814 F31.7683
G1 X-1.0169 Y0.0909 F31.7683
G1 X-1.0299 Y0.0994 F31.7683
G1 X-1.0428 Y0.1069 F31.7683
G1 X-1.0566 Y0.1141 F31.7683
G1 X-1.0710 Y0.1203 F31.7683
G1 X-1.0856 Y0.1257 F31.7683
G1 X-1.1006 Y0.1303 F31.7683
G1 X-1.1159 Y0.1340 F31.7683
G1 X-1.1313 Y0.1368 F31.7683
G1 X-1.1469 Y0.1387 F31.7683
G1 X-1.1625 Y0.1396 F31.7683
G1 X-1.1781 Y0.1396 F31.7683
G1 X-1.1938 Y0.1388 F31.7683
G1 X-1.2094 Y0.1369 F31.7683
G1 X-1.2249 Y0.1342 F31.7683
G1 X-1.2402 Y0.1307 F31.7683
G1 X-1.2552 Y0.1261 F31.7683
G1 X-1.2699 Y0.1207 F31.7683
G1 X-1.2843 Y0.1144 F31.7683
G1 X-1.2984 Y0.1073 F31.7683
G1 X-1.3120 Y0.0994 F31.7683
G1 X-1.3252 Y0.0907 F31.7683
G1 X-1.3377 Y0.0812 F31.7683
G1 X-1.3498 Y0.0710 F31.7683
G1 X-1.3612 Y0.0602 F31.7683
G1 X-1.3720 Y0.0487 F31.7683
G1 X-1.3821 Y0.0367 F31.7683
G1 X-1.3915 Y0.0240 F31.7683
G1 X-1.3996 Y0.0105 F31.7683
G1 X-1.4056 Y-0.0006 F31.7683
G1 X-1.4122 Y-0.0141 F31.7683
G1 X-1.4182 Y-0.0285 F31.7683
G1 X-1.4234 Y-0.0433 F31.7683
G1 X-1.4278 Y-0.0583 F31.7683
G1 X-1.4313 Y-0.0736 F31.7683
G1 X-1.4341 Y-0.0890 F31.7683
G1 X-1.4354 Y-0.1046 F31.7683
G1 X-1.4360 Y-0.1181 F31.7683
G1 X-1.4357 Y-0.1337 F31.7683
G1 X-1.4347 Y-0.1494 F31.7683
G1 X-1.4326 Y-0.1649 F31.7683
G1 X-1.4296 Y-0.1802 F31.7683
G1 X-1.4259 Y-0.1955 F31.7683
G1 X-1.4213 Y-0.2105 F31.7683
G1 X-1.4158 Y-0.2253 F31.7683
G1 X-1.4096 Y-0.2397 F31.7683
G1 X-1.4026 Y-0.2537 F31.7683
G1 X-1.3947 Y-0.2673 F31.7683
G1 X-1.3861 Y-0.2805 F31.7683
G1 X-1.3767 Y-0.2932 F31.7683
G1 X-1.3666 Y-0.3054 F31.7683
G1 X-1.3559 Y-0.3169 F31.7683
G1 X-1.3446 Y-0.3279 F31.7683
G1 X-1.3327 Y-0.3382 F31.7683
G1 X-1.3201 Y-0.3478 F31.7683
G1 X-1.3073 Y-0.3570 F31.7683
G1 X-1.2939 Y-0.3654 F31.7683
G1 X-1.2801 Y-0.3732 F31.7683
G1 X-1.2660 Y-0.3803 F31.7683
G1 X-1.2515 Y-0.3866 F31.7683
G1 X-1.2367 Y-0.3921 F31.7683
G1 X-1.2215 Y-0.3964 F31.7683
G1 X-1.2077 Y-0.3997 F31.7683
G1 X-1.1922 Y-0.4024 F31.7683
G1 X-1.1766 Y-0.4044 F31.7683
G1 X-1.1608 Y-0.4055 F31.7683
G1 X-1.1431 Y-0.4056 F31.7683
G1 X-1.1273 Y-0.4051 F31.7683
G1 X-1.1116 Y-0.4035 F31.7683
G1 X-1.0960 Y-0.4013 F31.7683
G1 X-1.0806 Y-0.3976 F31.7683
G1 X-1.0674 Y-0.3941 F31.7683
G1 X-1.0524 Y-0.3890 F31.7683
G1 X-1.0378 Y-0.3829 F31.7683
G1 X-1.0235 Y-0.3761 F31.7683
G1 X-1.0096 Y-0.3685 F31.7683
G1 X-0.9961 Y-0.3604 F31.7683
G1 X-0.9830 Y-0.3514 F31.7683
G1 X-0.9705 Y-0.3418 F31.7683
G1 X-0.9584 Y-0.3316 F31.7683
G1 X-0.9469 Y-0.3207 F31.7683
G1 X-0.9359 Y-0.3093 F31.7683
G1 X-0.9256 Y-0.2974 F31.7683
G1 X-0.9158 Y-0.2848 F31.7683
G1 X-0.9067 Y-0.2719 F31.7683
G1 X-0.8984 Y-0.2585 F31.7683
G1 X-0.8912 Y-0.2443 F31.7683
G1 X-0.8853 Y-0.2314 F31.7683
G1 X-0.8797 Y-0.2167 F31.7683
G1 X-0.8750 Y-0.2015 F31.7683
G1 X-0.8711 Y-0.1861 F31.7683
G1 X-0.8677 Y-0.1706 F31.7683
G1 X-0.8652 Y-0.1550 F31.7683
G1 X-0.8634 Y-0.1393 F31.7683
G1 X-0.8625 Y-0.1235 F31.7683
G1 X-0.8622 Y-0.1078 F31.7683
G1 X-0.8628 Y-0.0920 F31.7683
G1 X-0.8648 Y-0.0764 F31.7683
G1 X-0.8670 Y-0.0629 F31.7683
G1 X-0.8706 Y-0.0475 F31.7683
G1 X-0.8746 Y-0.0322 F31.7683
G1 X-0.8797 Y-0.0172 F31.7683
G1 X-0.8855 Y-0.0026 F31.7683
G1 X-0.8916 Y0.0118 F31.7683
G1 X-0.8986 Y0.0258 F31.7683
G1 X-0.9063 Y0.0395 F31.7683
G1 X-0.9144 Y0.0529 F31.7683
G1 X-0.9232 Y0.0658 F31.7683
G1 X-0.9327 Y0.0784 F31.7683
G1 X-0.9433 Y0.0899 F31.7683
G1 X-0.9529 Y0.0998 F31.7683
G1 X-0.9908 Y0.1316 F31.7683
G1 X-1.0314 Y0.1556 F31.7683
G1 X-1.0695 Y0.1710 F31.7683
G1 X-1.1138 Y0.1816 F31.7683
G1 X-1.1599 Y0.1864 F31.7683
G1 X-1.1756 Y0.1868 F31.7683
G1 X-1.1912 Y0.1863 F31.7683
G1 X-1.2068 Y0.1850 F31.7683
G1 X-1.2224 Y0.1833 F31.7683
G1 X-1.2379 Y0.1807 F31.7683
G1 X-1.2532 Y0.1768 F31.7683
G1 X-1.2671 Y0.1727 F31.7683
G1 X-1.2819 Y0.1674 F31.7683
G1 X-1.2964 Y0.1615 F31.7683
G1 X-1.3107 Y0.1548 F31.7683
G1 X-1.3246 Y0.1474 F31.7683
G1 X-1.3381 Y0.1393 F31.7683
G1 X-1.3511 Y0.1305 F31.7683
G1 X-1.3638 Y0.1212 F31.7683
G1 X-1.3760 Y0.1112 F31.7683
G1 X-1.3875 Y0.1006 F31.7683
G1 X-1.3986 Y0.0894 F31.7683
G1 X-1.4091 Y0.0778 F31.7683
G1 X-1.4190 Y0.0655 F31.7683
G1 X-1.4284 Y0.0528 F31.7683
G1 X-1.4370 Y0.0396 F31.7683
G1 X-1.4450 Y0.0260 F31.7683
G1 X-1.4523 Y0.0119 F31.7683
G1 X-1.4589 Y-0.0022 F31.7683
G1 X-1.4750 Y-0.0668 F31.7683
G1 X-1.4796 Y-0.1351 F31.7683
G1 X-1.4759 Y-0.1738 F31.7683
G1 X-1.4678 Y-0.2089 F31.7683
G1 X-1.4500 Y-0.2566 F31.7683
G1 X-1.4434 Y-0.2709 F31.7683
G1 X-1.4364 Y-0.2849 F31.7683
G1 X-1.4285 Y-0.2986 F31.7683
G1 X-1.4202 Y-0.3119 F31.7683
G1 X-1.4113 Y-0.3248 F31.7683
G1 X-1.3917 Y-0.3477 F31.7683
G1 X-1.3807 Y-0.3589 F31.7683
G1 X-1.3691 Y-0.3696 F31.7683
G1 X-1.3570 Y-0.3797 F31.7683
G1 X-1.3445 Y-0.3891 F31.7683
G1 X-1.3314 Y-0.3981 F31.7683
G1 X-1.3163 Y-0.4072 F31.7683
G1 X-1.2498 Y-0.4336 F31.7683
G1 X-1.1848 Y-0.4461 F31.7683
G1 X-1.1297 Y-0.4487 F31.7683
G1 X-1.0824 Y-0.4444 F31.7683
G1 X-1.0450 Y-0.4342 F31.7683
G1 X-1.0036 Y-0.4171 F31.7683
G1 X-0.9820 Y-0.4053 F31.7683
G1 X-0.9684 Y-0.3973 F31.7683
G1 X-0.9552 Y-0.3885 F31.7683
G1 X-0.9424 Y-0.3792 F31.7683
G1 X-0.9301 Y-0.3692 F31.7683
G1 X-0.9182 Y-0.3588 F31.7683
G1 X-0.9067 Y-0.3478 F31.7683
G1 X-0.8958 Y-0.3364 F31.7683
G1 X-0.8853 Y-0.3244 F31.7683
G1 X-0.8755 Y-0.3120 F31.7683
G1 X-0.8663 Y-0.2992 F31.7683
G1 X-0.8583 Y-0.2856 F31.7683
G1 X-0.8516 Y-0.2734 F31.7683
G1 X-0.8446 Y-0.2592 F31.7683
G1 X-0.8382 Y-0.2447 F31.7683
G1 X-0.8326 Y-0.2299 F31.7683
G1 X-0.8275 Y-0.2149 F31.7683
G1 X-0.8231 Y-0.1997 F31.7683
G1 X-0.8194 Y-0.1843 F31.7683
G1 X-0.8164 Y-0.1688 F31.7683
G1 X-0.8141 Y-0.1532 F31.7683
G1 X-0.8125 Y-0.1374 F31.7683
G1 X-0.8116 Y-0.1217 F31.7683
G1 X-0.8114 Y-0.1059 F31.7683
G1 X-0.8125 Y-0.0902 F31.7683
G1 X-0.8141 Y-0.0746 F31.7683
G1 X-0.8166 Y-0.0589 F31.7683
G1 X-0.8195 Y-0.0434 F31.7683
G1 X-0.8233 Y-0.0281 F31.7683
G1 X-0.8327 Y0.0020 F31.7683
G1 X-0.8383 Y0.0166 F31.7683
G1 X-0.8445 Y0.0310 F31.7683
G1 X-0.8511 Y0.0452 F31.7683
G1 X-0.8584 Y0.0591 F31.7683
G1 X-0.8663 Y0.0726 F31.7683
G1 X-0.8746 Y0.0859 F31.7683
G1 X-0.9135 Y0.1341 F31.7683
G1 X-0.9210 Y0.1400 F31.7683
G1 X-0.9326 Y0.1463 F31.7683
G1 X-0.9843 Y0.1576 F31.7683
G1 X-1.0244 Y0.1703 F31.7683
G1 X-1.0894 Y0.1993 F31.7683
G1 X-1.1307 Y0.2189 F31.7683
G1 X-1.1452 Y0.2235 F31.7683
G1 X-1.1858 Y0.2279 F31.7683
G1 X-1.2135 Y0.2271 F31.7683
G1 X-1.2291 Y0.2260 F31.7683
G1 X-1.2447 Y0.2242 F31.7683
G1 X-1.2602 Y0.2215 F31.7683
G1 X-1.2755 Y0.2179 F31.7683
G1 X-1.2906 Y0.2138 F31.7683
G1 X-1.3055 Y0.2090 F31.7683
G1 X-1.3201 Y0.2035 F31.7683
G1 X-1.3345 Y0.1973 F31.7683
G1 X-1.3484 Y0.1900 F31.7683
G1 X-1.3613 Y0.1825 F31.7683
G1 X-1.3745 Y0.1738 F31.7683
G1 X-1.3874 Y0.1647 F31.7683
G1 X-1.4118 Y0.1448 F31.7683
G1 X-1.4234 Y0.1341 F31.7683
G1 X-1.4344 Y0.1229 F31.7683
G1 X-1.4451 Y0.1113 F31.7683
G1 X-1.4553 Y0.0993 F31.7683
G1 X-1.4651 Y0.0869 F31.7683
G1 X-1.4861 Y0.0466 F31.7683
G1 X-1.4961 Y0.0205 F31.7683
G1 X-1.5025 Y-0.0121 F31.7683
G1 X-1.5006 Y-0.2224 F31.7683
G1 X-1.4964 Y-0.2483 F31.7683
G1 X-1.4795 Y-0.2933 F31.7683
G1 X-1.4553 Y-0.3351 F31.7683
G1 X-1.4470 Y-0.3484 F31.7683
G1 X-1.4286 Y-0.3739 F31.7683
G1 X-1.4184 Y-0.3858 F31.7683
G1 X-1.4076 Y-0.3973 F31.7683
G1 X-1.3944 Y-0.4091 F31.7683
G1 X-1.3391 Y-0.4443 F31.7683
G1 X-1.3278 Y-0.4484 F31.7683
G1 X-1.3120 Y-0.4523 F31.7683
G1 X-1.0148 Y-0.4513 F31.7683
G1 X-0.9833 Y-0.4456 F31.7683
G1 X-0.9531 Y-0.4337 F31.7683
G1 X-0.9141 Y-0.4112 F31.7683
G1 X-0.8928 Y-0.3957 F31.7683
G1 X-0.8805 Y-0.3857 F31.7683
G1 X-0.8688 Y-0.3750 F31.7683
G1 X-0.8577 Y-0.3638 F31.7683
G1 X-0.8468 Y-0.3522 F31.7683
G1 X-0.8366 Y-0.3401 F31.7683
G1 X-0.8270 Y-0.3275 F31.7683
G1 X-0.8179 Y-0.3146 F31.7683
G1 X-0.8095 Y-0.3012 F31.7683
G1 X-0.8018 Y-0.2874 F31.7683
G1 X-0.7947 Y-0.2733 F31.7683
G1 X-0.7881 Y-0.2589 F31.7683
G1 X-0.7822 Y-0.2441 F31.7683
G1 X-0.7771 Y-0.2291 F31.7683
G1 X-0.7725 Y-0.2140 F31.7683
G1 X-0.7687 Y-0.1986 F31.7683
G1 X-0.7656 Y-0.1831 F31.7683
G1 X-0.7633 Y-0.1674 F31.7683
G1 X-0.7616 Y-0.1517 F31.7683
G1 X-0.7606 Y-0.1359 F31.7683
G1 X-0.7600 Y-0.1202 F31.7683
G1 X-0.7602 Y-0.1045 F31.7683
G1 X-0.7611 Y-0.0887 F31.7683
G1 X-0.7624 Y-0.0730 F31.7683
G1 X-0.7645 Y-0.0573 F31.7683
G1 X-0.7672 Y-0.0417 F31.7683
G1 X-0.7704 Y-0.0262 F31.7683
G1 X-0.7740 Y-0.0108 F31.7683
G1 X-0.7783 Y0.0043 F31.7683
G1 X-0.7830 Y0.0192 F31.7683
G1 X-0.7881 Y0.0340 F31.7683
G1 X-0.7939 Y0.0485 F31.7683
G1 X-0.8002 Y0.0629 F31.7683
G1 X-0.8068 Y0.0770 F31.7683
G1 X-0.8298 Y0.1154 F31.7683
G1 X-0.8424 Y0.1318 F31.7683
G1 X-0.8484 Y0.1362 F31.7683
G1 X-0.8552 Y0.1395 F31.7683
G1 X-0.8589 Y0.1396 F31.7683
G1 X-0.8589 Y0.1396 F31.7683
G1 X-0.8663 Y0.1388 F31.7683
G1 X-0.8698 Y0.1380 F31.7683
G1 X-0.8768 Y0.1355 F31.7683
G1 X-0.8835 Y0.1320 F31.7683
G0 X-0.8868 Y0.1303
G0 X-0.9329 Y0.1110
G0 X-0.9365 Y0.1097
G0 X-0.9402 Y0.1089
G0 X-0.9439 Y0.1085
G0 X-0.9475 Y0.1086
G0 X-1.0514 Y0.1378
G0 X-1.0550 Y0.1390
G0 X-1.0583 Y0.1407
G0 X-1.0614 Y0.1427
G0 X-1.0641 Y0.1452
G0 X-1.0854 Y0.1731
G1 X-1.0876 Y0.1763 F31.7683
G1 X-1.0920 Y0.1825 F31.7683
G1 X-1.1038 Y0.2018 F31.7683
G1 X-1.1086 Y0.2077 F31.7683
G1 X-1.1172 Y0.2153 F31.7683
G1 X-1.1172 Y0.2153 F31.7683
G1 X-1.1698 Y0.2493 F31.7683
G1 X-1.1853 Y0.2563 F31.7683
G1 X-1.2111 Y0.2607 F31.7683
G1 X-1.2443 Y0.2619 F31.7683
G1 X-1.2655 Y0.2608 F31.7683
G1 X-1.2811 Y0.2591 F31.7683
G1 X-1.2966 Y0.2564 F31.7683
G1 X-1.3119 Y0.2525 F31.7683
G1 X-1.3253 Y0.2484 F31.7683
G1 X-1.3402 Y0.2435 F31.7683
G1 X-1.3548 Y0.2377 F31.7683
G1 X-1.3691 Y0.2312 F31.7683
G1 X-1.3831 Y0.2242 F31.7683
G1 X-1.3969 Y0.2165 F31.7683
G1 X-1.4103 Y0.2083 F31.7683
G1 X-1.4234 Y0.1994 F31.7683
G1 X-1.4359 Y0.1900 F31.7683
G1 X-1.4481 Y0.1800 F31.7683
G1 X-1.4611 Y0.1679 F31.7683
G1 X-1.4941 Y0.1238 F31.7683
G1 X-1.4989 Y0.1129 F31.7683
G1 X-1.5023 Y0.1011 F31.7683
G1 X-1.5025 Y0.0047 F31.7683
G1 X-1.5025 Y0.0047 F31.7683
G1 X-1.5015 Y-0.0027 F31.7683
G1 X-1.4995 Y-0.0098 F31.7683
G1 X-1.4980 Y-0.0132 F31.7683
G1 X-1.4962 Y-0.0161 F31.7683
G1 X-1.4940 Y-0.0181 F31.7683
G0 X-1.4915 Y-0.0188
G0 X-1.4888 Y-0.0186
G0 X-1.4860 Y-0.0175
G0 X-1.4801 Y-0.0139
G0 X-1.1700 Y0.2096
G1 X-1.1662 Y0.2125 F31.7683
G1 X-1.1597 Y0.2173 F31.7683
G1 X-1.1569 Y0.2196 F31.7683
G1 X-1.1548 Y0.2222 F31.7683
G1 X-1.1535 Y0.2251 F31.7683
G1 X-1.1533 Y0.2282 F31.7683
G1 X-1.1538 Y0.2315 F31.7683
G1 X-1.1549 Y0.2349 F31.7683
G1 X-1.1565 Y0.2382 F31.7683
G1 X-1.1586 Y0.2413 F31.7683
G1 X-1.1663 Y0.2496 F31.7683
G1 X-1.1663 Y0.2496 F31.7683
G1 X-1.2034 Y0.2792 F31.7683
G1 X-1.2165 Y0.2867 F31.7683
G1 X-1.2254 Y0.2899 F31.7683
G1 X-1.2494 Y0.2939 F31.7683
G1 X-1.2808 Y0.2952 F31.7683
G1 X-1.2964 Y0.2945 F31.7683
G1 X-1.3120 Y0.2931 F31.7683
G1 X-1.3275 Y0.2907 F31.7683
G1 X-1.3429 Y0.2873 F31.7683
G1 X-1.3580 Y0.2832 F31.7683
G1 X-1.3729 Y0.2782 F31.7683
G1 X-1.3877 Y0.2726 F31.7683
G1 X-1.4021 Y0.2662 F31.7683
G1 X-1.4161 Y0.2591 F31.7683
G1 X-1.4297 Y0.2514 F31.7683
G1 X-1.4430 Y0.2429 F31.7683
G1 X-1.4603 Y0.2301 F31.7683
G1 X-1.4899 Y0.2010 F31.7683
G1 X-1.4958 Y0.1933 F31.7683
G1 X-1.5014 Y0.1805 F31.7683
G1 X-1.5025 Y0.1766 F31.7683
G1 X-1.5025 Y0.1096 F31.7683
G1 X-1.5025 Y0.1096 F31.7683
G1 X-1.5015 Y0.1020 F31.7683
G1 X-1.5006 Y0.0983 F31.7683
G1 X-1.4995 Y0.0947 F31.7683
G1 X-1.4980 Y0.0913 F31.7683
G1 X-1.4961 Y0.0883 F31.7683
G1 X-1.4938 Y0.0862 F31.7683
G0 X-1.4913 Y0.0853
G0 X-1.4884 Y0.0853
G0 X-1.4854 Y0.0861
G0 X-1.4790 Y0.0890
G0 X-1.2079 Y0.2403
G1 X-1.2036 Y0.2427 F31.7683
G1 X-1.1959 Y0.2474 F31.7683
G1 X-1.1929 Y0.2501 F31.7683
G1 X-1.1911 Y0.2531 F31.7683
G1 X-1.1902 Y0.2563 F31.7683
G1 X-1.1902 Y0.2597 F31.7683
G1 X-1.1908 Y0.2632 F31.7683
G1 X-1.1921 Y0.2665 F31.7683
G1 X-1.1938 Y0.2698 F31.7683
G1 X-1.2003 Y0.2792 F31.7683
G1 X-1.2003 Y0.2792 F31.7683
G1 X-1.2275 Y0.3052 F31.7683
G1 X-1.2426 Y0.3163 F31.7683
G1 X-1.2510 Y0.3204 F31.7683
G1 X-1.2731 Y0.3257 F31.7683
G1 X-1.3063 Y0.3285 F31.7683
G1 X-1.3220 Y0.3286 F31.7683
G1 X-1.3376 Y0.3275 F31.7683
G1 X-1.3532 Y0.3258 F31.7683
G1 X-1.3686 Y0.3228 F31.7683
G1 X-1.3830 Y0.3194 F31.7683
G1 X-1.3980 Y0.3148 F31.7683
G1 X-1.4128 Y0.3094 F31.7683
G1 X-1.4272 Y0.3031 F31.7683
G1 X-1.4412 Y0.2960 F31.7683
G1 X-1.4550 Y0.2885 F31.7683
G1 X-1.4731 Y0.2765 F31.7683
G1 X-1.4904 Y0.2609 F31.7683
G1 X-1.4945 Y0.2565 F31.7683
G1 X-1.4977 Y0.2515 F31.7683
G1 X-1.5022 Y0.2404 F31.7683
G1 X-1.5025 Y0.1813 F31.7683
G1 X-1.5025 Y0.1813 F31.7683
G1 X-1.5015 Y0.1737 F31.7683
G1 X-1.5006 Y0.1700 F31.7683
G1 X-1.4995 Y0.1665 F31.7683
G1 X-1.4980 Y0.1630 F31.7683
G1 X-1.4961 Y0.1601 F31.7683
G1 X-1.4938 Y0.1578 F31.7683
G0 X-1.4913 Y0.1569
G0 X-1.4883 Y0.1567
G0 X-1.4851 Y0.1574
G0 X-1.4786 Y0.1598
G0 X-1.2422 Y0.2731
G1 X-1.2378 Y0.2752 F31.7683
G1 X-1.2299 Y0.2794 F31.7683
G1 X-1.2267 Y0.2819 F31.7683
G1 X-1.2247 Y0.2847 F31.7683
G1 X-1.2234 Y0.2878 F31.7683
G1 X-1.2232 Y0.2912 F31.7683
G1 X-1.2235 Y0.2948 F31.7683
G1 X-1.2244 Y0.2982 F31.7683
G1 X-1.2259 Y0.3017 F31.7683
G1 X-1.2317 Y0.3115 F31.7683
G1 X-1.2317 Y0.3115 F31.7683
G1 X-1.2542 Y0.3366 F31.7683
G1 X-1.2672 Y0.3472 F31.7683
G1 X-1.2737 Y0.3510 F31.7683
G1 X-1.3049 Y0.3594 F31.7683
G1 X-1.3289 Y0.3622 F31.7683
G1 X-1.3445 Y0.3633 F31.7683
G1 X-1.3601 Y0.3631 F31.7683
G1 X-1.3757 Y0.3616 F31.7683
G1 X-1.3898 Y0.3593 F31.7683
G1 X-1.4024 Y0.3564 F31.7683
G1 X-1.4171 Y0.3526 F31.7683
G1 X-1.4320 Y0.3478 F31.7683
G1 X-1.4466 Y0.3422 F31.7683
G1 X-1.4606 Y0.3351 F31.7683
G1 X-1.4817 Y0.3210 F31.7683
G1 X-1.4947 Y0.3094 F31.7683
G1 X-1.4980 Y0.3045 F31.7683
G1 X-1.5021 Y0.2954 F31.7683
G1 X-1.5025 Y0.2934 F31.7683
G1 X-1.5025 Y0.2442 F31.7683
G1 X-1.5025 Y0.2442 F31.7683
G1 X-1.5015 Y0.2366 F31.7683
G1 X-1.5006 Y0.2329 F31.7683
G1 X-1.4995 Y0.2293 F31.7683
G1 X-1.4980 Y0.2259 F31.7683
G1 X-1.4961 Y0.2229 F31.7683
G1 X-1.4938 Y0.2207 F31.7683
G0 X-1.4911 Y0.2195
G0 X-1.4881 Y0.2192
G0 X-1.4849 Y0.2196
G0 X-1.4781 Y0.2217
G0 X-1.2682 Y0.3031
G1 X-1.2641 Y0.3046 F31.7683
G1 X-1.2569 Y0.3076 F31.7683
G1 X-1.2536 Y0.3092 F31.7683
G1 X-1.2510 Y0.3111 F31.7683
G1 X-1.2491 Y0.3136 F31.7683
G1 X-1.2480 Y0.3164 F31.7683
G1 X-1.2478 Y0.3198 F31.7683
G1 X-1.2482 Y0.3232 F31.7683
G1 X-1.2489 Y0.3268 F31.7683
G1 X-1.2501 Y0.3302 F31.7683
G1 X-1.2555 Y0.3403 F31.7683
G1 X-1.2555 Y0.3403 F31.7683
G1 X-1.2774 Y0.3684 F31.7683
G1 X-1.2885 Y0.3787 F31.7683
G1 X-1.2947 Y0.3829 F31.7683
G1 X-1.3105 Y0.3890 F31.7683
G1 X-1.3474 Y0.3964 F31.7683
G1 X-1.3631 Y0.3978 F31.7683
G1 X-1.3787 Y0.3983 F31.7683
G1 X-1.3943 Y0.3975 F31.7683
G1 X-1.4091 Y0.3957 F31.7683
G1 X-1.4227 Y0.3933 F31.7683
G1 X-1.4380 Y0.3895 F31.7683
G1 X-1.4519 Y0.3845 F31.7683
G1 X-1.4625 Y0.3800 F31.7683
G1 X-1.4856 Y0.3655 F31.7683
G1 X-1.4945 Y0.3579 F31.7683
G1 X-1.4988 Y0.3514 F31.7683
G1 X-1.5020 Y0.3440 F31.7683
G1 X-1.5025 Y0.3420 F31.7683
G1 X-1.5025 Y0.2968 F31.7683
G1 X-1.5025 Y0.2968 F31.7683
G1 X-1.5015 Y0.2891 F31.7683
G1 X-1.5006 Y0.2854 F31.7683
G1 X-1.4995 Y0.2819 F31.7683
G1 X-1.4980 Y0.2784 F31.7683
G1 X-1.4961 Y0.2753 F31.7683
G1 X-1.4937 Y0.2731 F31.7683
G0 X-1.4910 Y0.2719
G0 X-1.4881 Y0.2715
G0 X-1.4847 Y0.2718
G0 X-1.4779 Y0.2734
G0 X-1.2933 Y0.3343
G1 X-1.2889 Y0.3356 F31.7683
G1 X-1.2806 Y0.3388 F31.7683
G1 X-1.2772 Y0.3408 F31.7683
G1 X-1.2746 Y0.3433 F31.7683
G1 X-1.2730 Y0.3462 F31.7683
G1 X-1.2721 Y0.3495 F31.7683
G1 X-1.2720 Y0.3531 F31.7683
G1 X-1.2723 Y0.3567 F31.7683
G1 X-1.2731 Y0.3604 F31.7683
G1 X-1.2773 Y0.3709 F31.7683
G1 X-1.2773 Y0.3709 F31.7683
G1 X-1.2948 Y0.3976 F31.7683
G1 X-1.3062 Y0.4099 F31.7683
G1 X-1.3107 Y0.4135 F31.7683
G1 X-1.3364 Y0.4247 F31.7683
G1 X-1.3585 Y0.4300 F31.7683
G1 X-1.3844 Y0.4327 F31.7683
G1 X-1.4102 Y0.4320 F31.7683
G1 X-1.4434 Y0.4253 F31.7683
G1 X-1.4739 Y0.4131 F31.7683
G1 X-1.4903 Y0.4024 F31.7683
G1 X-1.4947 Y0.3986 F31.7683
G1 X-1.4983 Y0.3938 F31.7683
G1 X-1.5025 Y0.3848 F31.7683
G1 X-1.5025 Y0.3455 F31.7683
G1 X-1.5025 Y0.3455 F31.7683
G1 X-1.5015 Y0.3378 F31.7683
G1 X-1.5006 Y0.3342 F31.7683
G1 X-1.4995 Y0.3306 F31.7683
G1 X-1.4980 Y0.3271 F31.7683
G1 X-1.4961 Y0.3241 F31.7683
G1 X-1.4937 Y0.3219 F31.7683
G0 X-1.4910 Y0.3205
G0 X-1.4879 Y0.3200
G0 X-1.4846 Y0.3201
G0 X-1.4776 Y0.3215
G0 X-1.3141 Y0.3671
G1 X-1.3098 Y0.3685 F31.7683
G1 X-1.3013 Y0.3712 F31.7683
G1 X-1.2979 Y0.3730 F31.7683
G1 X-1.2952 Y0.3754 F31.7683
G1 X-1.2934 Y0.3783 F31.7683
G1 X-1.2924 Y0.3816 F31.7683
G1 X-1.2921 Y0.3851 F31.7683
G1 X-1.2922 Y0.3888 F31.7683
G1 X-1.2928 Y0.3923 F31.7683
G1 X-1.2964 Y0.4032 F31.7683
G1 X-1.2964 Y0.4032 F31.7683
G1 X-1.3124 Y0.4309 F31.7683
G1 X-1.3182 Y0.4382 F31.7683
G1 X-1.3236 Y0.4435 F31.7683
G1 X-1.3284 Y0.4465 F31.7683
G1 X-1.3522 Y0.4525 F31.7683
G1 X-1.4500 Y0.4515 F31.7683
G1 X-1.4703 Y0.4476 F31.7683
G1 X-1.4777 Y0.4450 F31.7683
G1 X-1.4910 Y0.4371 F31.7683
G1 X-1.4956 Y0.4333 F31.7683
G1 X-1.4999 Y0.4268 F31.7683
G1 X-1.5023 Y0.4213 F31.7683
G1 X-1.5025 Y0.3898 F31.7683
G1 X-1.5025 Y0.3898 F31.7683
G1 X-1.5020 Y0.3859 F31.7683
G1 X-1.5012 Y0.3826 F31.7683
G1 X-1.4998 Y0.3799 F31.7683
G0 X-1.4977 Y0.3783
G0 X-1.4951 Y0.3776
G0 X-1.4920 Y0.3776
G0 X-1.4851 Y0.3787
G0 X-1.3322 Y0.4162
G1 X-1.3278 Y0.4172 F31.7683
G1 X-1.3194 Y0.4197 F31.7683
G1 X-1.3161 Y0.4214 F31.7683
G1 X-1.3139 Y0.4237 F31.7683
G1 X-1.3126 Y0.4266 F31.7683
G1 X-1.3124 Y0.4297 F31.7683
G1 X-1.3132 Y0.4366 F31.7683
G1 X-1.3132 Y0.4366 F31.7683
G1 X-1.3184 Y0.4467 F31.7683
G1 X-1.3210 Y0.4494 F31.7683
G1 X-1.3241 Y0.4514 F31.7683
G1 X-1.3276 Y0.4524 F31.7683
G1 X-1.3295 Y0.4525 F31.7683
G1 X-1.3295 Y0.4525 F31.7683
G1 X-1.3369 Y0.4515 F31.7683
G1 X-1.3477 Y0.4487 F31.7683
G0 X-1.3514 Y0.4480
G0 X-1.3628 Y0.4470
G0 X-1.4103 Y0.4469
G1 X-1.4141 Y0.4469 F31.7683
G1 X-1.4256 Y0.4470 F31.7683
G1 X-1.4328 Y0.4482 F31.7683
G1 X-1.4438 Y0.4510 F31.7683
G1 X-1.4551 Y0.4525 F31.7683
G1 X-1.4551 Y0.4525 F31.7683
G1 X-1.4828 Y0.4523 F31.7683
G1 X-1.4902 Y0.4510 F31.7683
G1 X-1.4954 Y0.4487 F31.7683
G1 X-1.5000 Y0.4449 F31.7683
G1 X-1.5022 Y0.4417 F31.7683
G1 X-1.5025 Y0.4318 F31.7683
G1 X-1.5025 Y0.4318 F31.7683
G1 X-1.5016 Y0.4302 F31.7683
G1 X-1.5004 Y0.4300 F31.7683
G1 X-1.4988 Y0.4313 F31.7683
G1 X-1.4927 Y0.4395 F31.7683
G1 X-1.4893 Y0.4455 F31.7683
G1 X-1.4887 Y0.4478 F31.7683
G1 X-1.4892 Y0.4496 F31.7683
G1 X-1.4906 Y0.4508 F31.7683
G1 X-1.4925 Y0.4518 F31.7683
G1 X-1.4925 Y0.4518 F31.7683
G1 X-1.4961 Y0.4504 F31.7683
G1 X-1.4990 Y0.4478 F31.7683
G1 X-1.5012 Y0.4445 F31.7683
G1 X-1.5012 Y0.4445 F31.7683
G1 X-1.5018 Y0.4369 F31.7683
G1 X-1.5016 Y0.4294 F31.7683
G1 X-1.5011 Y0.4256 F31.7683
G1 X-1.5001 Y0.4219 F31.7683
G1 X-1.4988 Y0.4186 F31.7683
G0 X-1.4968 Y0.4154
G0 X-1.4945 Y0.4124
G0 X-1.4702 Y0.3917
G0 X-1.4679 Y0.3889
G0 X-1.4662 Y0.3857
G0 X-1.4651 Y0.3823
G0 X-1.4642 Y0.3746
G0 X-1.4635 Y0.3120
G0 X-1.4617 Y0.2485
G0 X-1.4637 Y0.0886
G0 X-1.4620 Y-0.1169
G0 X-1.4630 Y-0.1244
G0 X-1.4663 Y-0.1351
G0 X-1.4836 Y-0.1768
G1 X-1.4850 Y-0.1802 F31.7683
G1 X-1.4879 Y-0.1873 F31.7683
G1 X-1.4983 Y-0.2074 F31.7683
G1 X-1.4996 Y-0.2110 F31.7683
G1 X-1.5015 Y-0.2184 F31.7683
G1 X-1.5025 Y-0.2259 F31.7683
G1 X-1.5025 Y-0.2259 F31.7683
G1 X-1.5011 Y-0.3034 F31.7683
G1 X-1.4954 Y-0.3329 F31.7683
G1 X-1.4825 Y-0.3628 F31.7683
G1 X-1.4662 Y-0.3891 F31.7683
G1 X-1.4443 Y-0.4172 F31.7683
G1 X-1.4203 Y-0.4398 F31.7683
G1 X-1.4122 Y-0.4457 F31.7683
G1 X-1.4031 Y-0.4499 F31.7683
G1 X-1.3955 Y-0.4524 F31.7683
G1 X-1.3227 Y-0.4525 F31.7683
G1 X-1.3227 Y-0.4525 F31.7683
G1 X-1.3151 Y-0.4515 F31.7683
G1 X-1.3114 Y-0.4507 F31.7683
G1 X-1.3078 Y-0.4496 F31.7683
G1 X-1.3044 Y-0.4481 F31.7683
G1 X-1.3016 Y-0.4462 F31.7683
G1 X-1.2997 Y-0.4443 F31.7683
G0 X-1.2992 Y-0.4421
G0 X-1.3000 Y-0.4397
G0 X-1.3016 Y-0.4374
G0 X-1.3063 Y-0.4327
G0 X-1.4744 Y-0.2947
G1 X-1.4780 Y-0.2917 F31.7683
G1 X-1.4850 Y-0.2864 F31.7683
G1 X-1.4883 Y-0.2849 F31.7683
G1 X-1.4913 Y-0.2847 F31.7683
G1 X-1.4940 Y-0.2858 F31.7683
G1 X-1.4962 Y-0.2878 F31.7683
G1 X-1.4980 Y-0.2906 F31.7683
G1 X-1.4996 Y-0.2937 F31.7683
G1 X-1.5007 Y-0.2972 F31.7683
G1 X-1.5025 Y-0.3083 F31.7683
G1 X-1.5025 Y-0.3083 F31.7683
G1 X-1.5017 Y-0.3655 F31.7683
G1 X-1.4985 Y-0.3858 F31.7683
G1 X-1.4940 Y-0.4006 F31.7683
G1 X-1.4838 Y-0.4195 F31.7683
G1 X-1.4711 Y-0.4368 F31.7683
G1 X-1.4628 Y-0.4455 F31.7683
G1 X-1.4578 Y-0.4487 F31.7683
G1 X-1.4486 Y-0.4525 F31.7683
G1 X-1.3994 Y-0.4525 F31.7683
G1 X-1.3994 Y-0.4525 F31.7683
G1 X-1.3917 Y-0.4515 F31.7683
G1 X-1.3880 Y-0.4507 F31.7683
G1 X-1.3845 Y-0.4496 F31.7683
G1 X-1.3810 Y-0.4481 F31.7683
G1 X-1.3782 Y-0.4462 F31.7683
G1 X-1.3764 Y-0.4443 F31.7683
G0 X-1.3759 Y-0.4421
G0 X-1.3767 Y-0.4397
G0 X-1.3784 Y-0.4374
G0 X-1.3836 Y-0.4327
G0 X-1.4740 Y-0.3617
G1 X-1.4772 Y-0.3593 F31.7683
G1 X-1.4834 Y-0.3546 F31.7683
G1 X-1.4862 Y-0.3527 F31.7683
G1 X-1.4892 Y-0.3516 F31.7683
G1 X-1.4918 Y-0.3517 F31.7683
G1 X-1.4942 Y-0.3531 F31.7683
G1 X-1.4963 Y-0.3552 F31.7683
G1 X-1.4982 Y-0.3580 F31.7683
G1 X-1.4996 Y-0.3612 F31.7683
G1 X-1.5007 Y-0.3647 F31.7683
G1 X-1.5025 Y-0.3759 F31.7683
G1 X-1.5025 Y-0.3759 F31.7683
G1 X-1.5017 Y-0.4165 F31.7683
G1 X-1.5004 Y-0.4257 F31.7683
G1 X-1.4978 Y-0.4349 F31.7683
G1 X-1.4954 Y-0.4402 F31.7683
G1 X-1.4920 Y-0.4449 F31.7683
G1 X-1.4892 Y-0.4476 F31.7683
G1 X-1.4823 Y-0.4515 F31.7683
G1 X-1.4804 Y-0.4523 F31.7683
G1 X-1.4627 Y-0.4525 F31.7683
G1 X-1.4627 Y-0.4525 F31.7683
G1 X-1.4557 Y-0.4514 F31.7683
G1 X-1.4536 Y-0.4504 F31.7683
G0 X-1.4529 Y-0.4491
G0 X-1.4536 Y-0.4473
G0 X-1.4552 Y-0.4455
G0 X-1.4819 Y-0.4261
G1 X-1.4854 Y-0.4236 F31.7683
G1 X-1.4924 Y-0.4192 F31.7683
G1 X-1.4956 Y-0.4181 F31.7683
G1 X-1.4980 Y-0.4182 F31.7683
G1 X-1.4999 Y-0.4197 F31.7683
G1 X-1.5010 Y-0.4221 F31.7683
G1 X-1.5025 Y-0.4284 F31.7683
G1 X-1.5025 Y-0.4284 F31.7683
G1 X-1.5023 Y-0.4395 F31.7683
G1 X-1.5021 Y-0.4413 F31.7683
G1 X-1.4999 Y-0.4467 F31.7683
G1 X-1.4972 Y-0.4496 F31.7683
G1 X-1.4956 Y-0.4508 F31.7683
G1 X-1.4919 Y-0.4523 F31.7683
G1 X-1.4899 Y-0.4525 F31.7683
G1 X-1.4899 Y-0.4525 F31.7683
G1 X-1.4823 Y-0.4515 F31.7683
G1 X-1.4786 Y-0.4507 F31.7683
G1 X-1.4750 Y-0.4496 F31.7683
G1 X-1.4681 Y-0.4462 F31.7683
G1 X-1.4649 Y-0.4444 F31.7683
G0 X-1.4617 Y-0.4423
G0 X-1.4202 Y-0.4165
G0 X-1.4167 Y-0.4149
G0 X-1.4131 Y-0.4138
G0 X-1.4056 Y-0.4128
G0 X-1.2299 Y-0.4145
G0 X-1.0977 Y-0.4126
G0 X-1.0938 Y-0.4128
G0 X-1.0898 Y-0.4133
G0 X-1.0861 Y-0.4142
G0 X-1.0787 Y-0.4173
G0 X-1.0575 Y-0.4302
G1 X-1.0538 Y-0.4326 F31.7683
G1 X-1.0322 Y-0.4465 F31.7683
G1 X-1.0252 Y-0.4497 F31.7683
G1 X-1.0217 Y-0.4508 F31.7683
G1 X-1.0107 Y-0.4525 F31.7683
G1 X-1.0107 Y-0.4525 F31.7683
G1 X-0.9418 Y-0.4515 F31.7683
G1 X-0.9123 Y-0.4460 F31.7683
G1 X-0.8933 Y-0.4385 F31.7683
G1 X-0.8615 Y-0.4203 F31.7683
G1 X-0.8415 Y-0.4055 F31.7683
G1 X-0.8291 Y-0.3957 F31.7683
G1 X-0.8174 Y-0.3851 F31.7683
G1 X-0.8062 Y-0.3739 F31.7683
G1 X-0.7958 Y-0.3620 F31.7683
G1 X-0.7858 Y-0.3497 F31.7683
G1 X-0.7763 Y-0.3370 F31.7683
G1 X-0.7673 Y-0.3239 F31.7683
G1 X-0.7591 Y-0.3104 F31.7683
G1 X-0.7514 Y-0.2966 F31.7683
G1 X-0.7442 Y-0.2825 F31.7683
G1 X-0.7378 Y-0.2681 F31.7683
G1 X-0.7319 Y-0.2533 F31.7683
G1 X-0.7267 Y-0.2383 F31.7683
G1 X-0.7222 Y-0.2232 F31.7683
G1 X-0.7184 Y-0.2078 F31.7683
G1 X-0.7122 Y-0.1768 F31.7683
G1 X-0.7101 Y-0.1612 F31.7683
G1 X-0.7087 Y-0.1454 F31.7683
G1 X-0.7077 Y-0.1297 F31.7683
G1 X-0.7073 Y-0.1139 F31.7683
G1 X-0.7076 Y-0.0982 F31.7683
G1 X-0.7083 Y-0.0824 F31.7683
G1 X-0.7112 Y-0.0509 F31.7683
G1 X-0.7136 Y-0.0353 F31.7683
G1 X-0.7164 Y-0.0198 F31.7683
G1 X-0.7196 Y-0.0043 F31.7683
G1 X-0.7234 Y0.0109 F31.7683
G1 X-0.7277 Y0.0261 F31.7683
G1 X-0.7325 Y0.0410 F31.7683
G1 X-0.7378 Y0.0557 F31.7683
G1 X-0.7435 Y0.0704 F31.7683
G1 X-0.7496 Y0.0848 F31.7683
G1 X-0.7569 Y0.0987 F31.7683
G1 X-0.7749 Y0.1257 F31.7683
G1 X-0.7835 Y0.1356 F31.7683
G1 X-0.7864 Y0.1379 F31.7683
G1 X-0.7932 Y0.1411 F31.7683
G1 X-0.7969 Y0.1423 F31.7683
G1 X-0.7969 Y0.1423 F31.7683
G1 X-0.8041 Y0.1405 F31.7683
G1 X-0.8109 Y0.1377 F31.7683
G1 X-0.8141 Y0.1358 F31.7683
G1 X-0.8171 Y0.1336 F31.7683
G1 X-0.8195 Y0.1310 F31.7683
G0 X-0.8215 Y0.1281
G0 X-0.8231 Y0.1249
G0 X-0.8265 Y0.1143
G0 X-0.9573 Y-0.4178
G1 X-0.9585 Y-0.4230 F31.7683
G1 X-0.9606 Y-0.4312 F31.7683
G1 X-0.9612 Y-0.4349 F31.7683
G1 X-0.9612 Y-0.4384 F31.7683
G1 X-0.9604 Y-0.4413 F31.7683
G1 X-0.9587 Y-0.4440 F31.7683
G1 X-0.9562 Y-0.4462 F31.7683
G1 X-0.9534 Y-0.4481 F31.7683
G1 X-0.9500 Y-0.4497 F31.7683
G1 X-0.9466 Y-0.4508 F31.7683
G1 X-0.9358 Y-0.4525 F31.7683
G1 X-0.9358 Y-0.4525 F31.7683
G1 X-0.8787 Y-0.4518 F31.7683
G1 X-0.8590 Y-0.4488 F31.7683
G1 X-0.8433 Y-0.4445 F31.7683
G1 X-0.8043 Y-0.4227 F31.7683
G1 X-0.7814 Y-0.4050 F31.7683
G1 X-0.7693 Y-0.3948 F31.7683
G1 X-0.7579 Y-0.3839 F31.7683
G1 X-0.7470 Y-0.3723 F31.7683
G1 X-0.7368 Y-0.3602 F31.7683
G1 X-0.7271 Y-0.3477 F31.7683
G1 X-0.7181 Y-0.3346 F31.7683
G1 X-0.7098 Y-0.3212 F31.7683
G1 X-0.7020 Y-0.3075 F31.7683
G1 X-0.6950 Y-0.2933 F31.7683
G1 X-0.6825 Y-0.2641 F31.7683
G1 X-0.6769 Y-0.2494 F31.7683
G1 X-0.6720 Y-0.2344 F31.7683
G1 X-0.6676 Y-0.2192 F31.7683
G1 X-0.6636 Y-0.2039 F31.7683
G1 X-0.6603 Y-0.1884 F31.7683
G1 X-0.6575 Y-0.1727 F31.7683
G1 X-0.6553 Y-0.1571 F31.7683
G1 X-0.6537 Y-0.1414 F31.7683
G1 X-0.6526 Y-0.1256 F31.7683
G1 X-0.6521 Y-0.1099 F31.7683
G1 X-0.6521 Y-0.0941 F31.7683
G1 X-0.6527 Y-0.0784 F31.7683
G1 X-0.6539 Y-0.0626 F31.7683
G1 X-0.6576 Y-0.0312 F31.7683
G1 X-0.6603 Y-0.0156 F31.7683
G1 X-0.6634 Y-0.0001 F31.7683
G1 X-0.6670 Y0.0151 F31.7683
G1 X-0.6710 Y0.0303 F31.7683
G1 X-0.6756 Y0.0453 F31.7683
G1 X-0.6805 Y0.0602 F31.7683
G1 X-0.6859 Y0.0748 F31.7683
G1 X-0.6925 Y0.0890 F31.7683
G1 X-0.7000 Y0.1027 F31.7683
G1 X-0.7165 Y0.1287 F31.7683
G1 X-0.7293 Y0.1425 F31.7683
G1 X-0.7323 Y0.1449 F31.7683
G1 X-0.7389 Y0.1483 F31.7683
G1 X-0.7463 Y0.1502 F31.7683
G1 X-0.7629 Y0.1471 F31.7683
G1 X-0.7629 Y0.1471 F31.7683
G1 X-0.7701 Y0.1451 F31.7683
G1 X-0.7735 Y0.1436 F31.7683
G1 X-0.7768 Y0.1419 F31.7683
G1 X-0.7800 Y0.1398 F31.7683
G1 X-0.7827 Y0.1374 F31.7683
G1 X-0.7852 Y0.1347 F31.7683
G0 X-0.7870 Y0.1318
G0 X-0.7884 Y0.1284
G0 X-0.7912 Y0.1177
G0 X-0.8912 Y-0.4177
G1 X-0.8922 Y-0.4229 F31.7683
G1 X-0.8941 Y-0.4349 F31.7683
G1 X-0.8939 Y-0.4382 F31.7683
G1 X-0.8930 Y-0.4413 F31.7683
G1 X-0.8912 Y-0.4440 F31.7683
G1 X-0.8888 Y-0.4462 F31.7683
G1 X-0.8858 Y-0.4481 F31.7683
G1 X-0.8825 Y-0.4497 F31.7683
G1 X-0.8791 Y-0.4508 F31.7683
G1 X-0.8682 Y-0.4525 F31.7683
G1 X-0.8682 Y-0.4525 F31.7683
G1 X-0.8190 Y-0.4518 F31.7683
G1 X-0.7915 Y-0.4467 F31.7683
G1 X-0.7817 Y-0.4434 F31.7683
G1 X-0.7498 Y-0.4253 F31.7683
G1 X-0.7178 Y-0.3999 F31.7683
G1 X-0.6759 Y-0.3519 F31.7683
G1 X-0.6443 Y-0.3012 F31.7683
G1 X-0.6350 Y-0.2812 F31.7683
G1 X-0.6291 Y-0.2666 F31.7683
G1 X-0.6184 Y-0.2368 F31.7683
G1 X-0.6138 Y-0.2217 F31.7683
G1 X-0.6059 Y-0.1911 F31.7683
G1 X-0.6027 Y-0.1756 F31.7683
G1 X-0.5988 Y-0.1442 F31.7683
G1 X-0.5976 Y-0.1284 F31.7683
G1 X-0.5967 Y-0.1127 F31.7683
G1 X-0.5965 Y-0.0969 F31.7683
G1 X-0.5968 Y-0.0812 F31.7683
G1 X-0.5977 Y-0.0655 F31.7683
G1 X-0.5990 Y-0.0497 F31.7683
G1 X-0.6030 Y-0.0183 F31.7683
G1 X-0.6057 Y-0.0027 F31.7683
G1 X-0.6088 Y0.0127 F31.7683
G1 X-0.6122 Y0.0279 F31.7683
G1 X-0.6161 Y0.0431 F31.7683
G1 X-0.6262 Y0.0727 F31.7683
G1 X-0.6320 Y0.0872 F31.7683
G1 X-0.6391 Y0.1013 F31.7683
G1 X-0.6469 Y0.1145 F31.7683
G1 X-0.6547 Y0.1267 F31.7683
G1 X-0.6678 Y0.1433 F31.7683
G1 X-0.6849 Y0.1581 F31.7683
G1 X-0.6882 Y0.1598 F31.7683
G1 X-0.6993 Y0.1622 F31.7683
G1 X-0.7288 Y0.1542 F31.7683
G1 X-0.7288 Y0.1542 F31.7683
G1 X-0.7357 Y0.1515 F31.7683
G1 X-0.7391 Y0.1497 F31.7683
G1 X-0.7422 Y0.1476 F31.7683
G1 X-0.7451 Y0.1454 F31.7683
G1 X-0.7477 Y0.1427 F31.7683
G1 X-0.7499 Y0.1399 F31.7683
G0 X-0.7515 Y0.1367
G0 X-0.7537 Y0.1298
G0 X-0.7565 Y0.1126
G0 X-0.8322 Y-0.4176
G1 X-0.8329 Y-0.4227 F31.7683
G1 X-0.8344 Y-0.4348 F31.7683
G1 X-0.8342 Y-0.4382 F31.7683
G1 X-0.8330 Y-0.4413 F31.7683
G1 X-0.8312 Y-0.4440 F31.7683
G1 X-0.8287 Y-0.4462 F31.7683
G1 X-0.8258 Y-0.4481 F31.7683
G1 X-0.8226 Y-0.4497 F31.7683
G1 X-0.8190 Y-0.4508 F31.7683
G1 X-0.8082 Y-0.4525 F31.7683
G1 X-0.8082 Y-0.4525 F31.7683
G1 X-0.7609 Y-0.4518 F31.7683
G1 X-0.7354 Y-0.4470 F31.7683
G1 X-0.7297 Y-0.4445 F31.7683
G1 X-0.7096 Y-0.4302 F31.7683
G1 X-0.6097 Y-0.3275 F31.7683
G1 X-0.5918 Y-0.3027 F31.7683
G1 X-0.5721 Y-0.2624 F31.7683
G1 X-0.5547 Y-0.2095 F31.7683
G1 X-0.5513 Y-0.1940 F31.7683
G1 X-0.5482 Y-0.1785 F31.7683
G1 X-0.5456 Y-0.1629 F31.7683
G1 X-0.5423 Y-0.1314 F31.7683
G1 X-0.5412 Y-0.1156 F31.7683
G1 X-0.5407 Y-0.0999 F31.7683
G1 X-0.5406 Y-0.0842 F31.7683
G1 X-0.5410 Y-0.0684 F31.7683
G1 X-0.5418 Y-0.0527 F31.7683
G1 X-0.5431 Y-0.0369 F31.7683
G1 X-0.5448 Y-0.0212 F31.7683
G1 X-0.5470 Y-0.0055 F31.7683
G1 X-0.5497 Y0.0100 F31.7683
G1 X-0.5529 Y0.0253 F31.7683
G1 X-0.5565 Y0.0406 F31.7683
G1 X-0.5661 Y0.0704 F31.7683
G1 X-0.5717 Y0.0850 F31.7683
G1 X-0.5781 Y0.0993 F31.7683
G1 X-0.5856 Y0.1131 F31.7683
G1 X-0.5931 Y0.1260 F31.7683
G1 X-0.6019 Y0.1390 F31.7683
G1 X-0.6200 Y0.1592 F31.7683
G1 X-0.6346 Y0.1709 F31.7683
G1 X-0.6427 Y0.1757 F31.7683
G1 X-0.6483 Y0.1772 F31.7683
G1 X-0.6556 Y0.1778 F31.7683
G1 X-0.6575 Y0.1774 F31.7683
G1 X-0.6887 Y0.1657 F31.7683
G1 X-0.6980 Y0.1629 F31.7683
G1 X-0.6980 Y0.1629 F31.7683
G1 X-0.7005 Y0.1609 F31.7683
G0 X-0.7026 Y0.1586
G0 X-0.7041 Y0.1558
G0 X-0.7051 Y0.1524
G0 X-0.7062 Y0.1454
G0 X-0.7520 Y-0.4086
G1 X-0.7525 Y-0.4139 F31.7683
G1 X-0.7547 Y-0.4412 F31.7683
G1 X-0.7547 Y-0.4446 F31.7683
G1 X-0.7541 Y-0.4475 F31.7683
G1 X-0.7527 Y-0.4497 F31.7683
G1 X-0.7483 Y-0.4525 F31.7683
G1 X-0.7483 Y-0.4525 F31.7683
G1 X-0.7365 Y-0.4525 F31.7683
G1 X-0.7306 Y-0.4507 F31.7683
G1 X-0.7290 Y-0.4494 F31.7683
G1 X-0.7290 Y-0.4494 F31.7683
G1 X-0.7239 Y-0.4437 F31.7683
G1 X-0.7197 Y-0.4373 F31.7683
G1 X-0.7148 Y-0.4270 F31.7683
G0 X-0.7130 Y-0.4238
G0 X-0.7084 Y-0.4178
G0 X-0.6527 Y-0.3591
G1 X-0.6496 Y-0.3559 F31.7683
G1 X-0.6435 Y-0.3498 F31.7683
G1 X-0.6401 Y-0.3472 F31.7683
G1 X-0.6367 Y-0.3451 F31.7683
G1 X-0.6224 Y-0.3390 F31.7683
G1 X-0.6144 Y-0.3340 F31.7683
G1 X-0.6102 Y-0.3312 F31.7683
G1 X-0.6102 Y-0.3312 F31.7683
G1 X-0.5380 Y-0.2566 F31.7683
G1 X-0.5214 Y-0.2333 F31.7683
G1 X-0.5085 Y-0.2035 F31.7683
G1 X-0.4937 Y-0.1523 F31.7683
G1 X-0.4926 Y-0.1464 F31.7683
G1 X-0.4905 Y-0.1308 F31.7683
G1 X-0.4873 Y-0.0993 F31.7683
G1 X-0.4863 Y-0.0835 F31.7683
G1 X-0.4862 Y-0.0520 F31.7683
G1 X-0.4868 Y-0.0363 F31.7683
G1 X-0.4881 Y-0.0205 F31.7683
G1 X-0.4903 Y-0.0049 F31.7683
G1 X-0.4929 Y0.0106 F31.7683
G1 X-0.4998 Y0.0412 F31.7683
G1 X-0.5041 Y0.0563 F31.7683
G1 X-0.5089 Y0.0712 F31.7683
G1 X-0.5141 Y0.0860 F31.7683
G1 X-0.5199 Y0.1005 F31.7683
G1 X-0.5342 Y0.1284 F31.7683
G1 X-0.5428 Y0.1415 F31.7683
G1 X-0.5509 Y0.1527 F31.7683
G1 X-0.5608 Y0.1649 F31.7683
G1 X-0.5807 Y0.1829 F31.7683
G1 X-0.5935 Y0.1913 F31.7683
G1 X-0.6020 Y0.1955 F31.7683
G1 X-0.6075 Y0.1966 F31.7683
G1 X-0.6149 Y0.1965 F31.7683
G1 X-0.6168 Y0.1961 F31.7683
G1 X-0.6534 Y0.1791 F31.7683
G1 X-0.6534 Y0.1791 F31.7683
G1 X-0.6599 Y0.1754 F31.7683
G1 X-0.6630 Y0.1734 F31.7683
G1 X-0.6658 Y0.1709 F31.7683
G1 X-0.6684 Y0.1682 F31.7683
G1 X-0.6706 Y0.1652 F31.7683
G1 X-0.6721 Y0.1622 F31.7683
G0 X-0.6729 Y0.1588
G0 X-0.6731 Y0.1554
G0 X-0.6721 Y0.1483
G0 X-0.5689 Y-0.2451
G1 X-0.5677 Y-0.2498 F31.7683
G1 X-0.5656 Y-0.2576 F31.7683
G1 X-0.5645 Y-0.2611 F31.7683
G1 X-0.5629 Y-0.2638 F31.7683
G1 X-0.5607 Y-0.2655 F31.7683
G1 X-0.5579 Y-0.2664 F31.7683
G1 X-0.5549 Y-0.2664 F31.7683
G1 X-0.5516 Y-0.2657 F31.7683
G1 X-0.5480 Y-0.2644 F31.7683
G1 X-0.5442 Y-0.2624 F31.7683
G1 X-0.5359 Y-0.2570 F31.7683
G1 X-0.5359 Y-0.2570 F31.7683
G1 X-0.4796 Y-0.1992 F31.7683
G1 X-0.4617 Y-0.1742 F31.7683
G1 X-0.4534 Y-0.1555 F31.7683
G1 X-0.4422 Y-0.1161 F31.7683
G1 X-0.4379 Y-0.0925 F31.7683
G1 X-0.4354 Y-0.0610 F31.7683
G1 X-0.4352 Y-0.0453 F31.7683
G1 X-0.4365 Y-0.0138 F31.7683
G1 X-0.4381 Y0.0018 F31.7683
G1 X-0.4403 Y0.0173 F31.7683
G1 X-0.4430 Y0.0327 F31.7683
G1 X-0.4465 Y0.0480 F31.7683
G1 X-0.4504 Y0.0631 F31.7683
G1 X-0.4550 Y0.0781 F31.7683
G1 X-0.4601 Y0.0929 F31.7683
G1 X-0.4659 Y0.1075 F31.7683
G1 X-0.4722 Y0.1219 F31.7683
G1 X-0.4875 Y0.1492 F31.7683
G1 X-0.4959 Y0.1624 F31.7683
G1 X-0.5053 Y0.1750 F31.7683
G1 X-0.5159 Y0.1865 F31.7683
G1 X-0.5249 Y0.1948 F31.7683
G1 X-0.5380 Y0.2051 F31.7683
G1 X-0.5561 Y0.2153 F31.7683
G1 X-0.5630 Y0.2181 F31.7683
G1 X-0.5685 Y0.2190 F31.7683
G1 X-0.5778 Y0.2180 F31.7683
G1 X-0.5796 Y0.2173 F31.7683
G1 X-0.6136 Y0.1978 F31.7683
G1 X-0.6136 Y0.1978 F31.7683
G1 X-0.6198 Y0.1937 F31.7683
G1 X-0.6227 Y0.1912 F31.7683
G1 X-0.6254 Y0.1886 F31.7683
G1 X-0.6277 Y0.1857 F31.7683
G1 X-0.6296 Y0.1826 F31.7683
G1 X-0.6309 Y0.1793 F31.7683
G0 X-0.6314 Y0.1759
G0 X-0.6313 Y0.1725
G0 X-0.6297 Y0.1654
G0 X-0.5073 Y-0.1823
G1 X-0.5057 Y-0.1869 F31.7683
G1 X-0.5030 Y-0.1945 F31.7683
G1 X-0.5015 Y-0.1977 F31.7683
G1 X-0.4996 Y-0.2004 F31.7683
G1 X-0.4973 Y-0.2021 F31.7683
G1 X-0.4945 Y-0.2029 F31.7683
G1 X-0.4913 Y-0.2029 F31.7683
G1 X-0.4879 Y-0.2023 F31.7683
G1 X-0.4844 Y-0.2009 F31.7683
G1 X-0.4806 Y-0.1989 F31.7683
G1 X-0.4723 Y-0.1935 F31.7683
G1 X-0.4723 Y-0.1935 F31.7683
G1 X-0.4248 Y-0.1443 F31.7683
G1 X-0.4098 Y-0.1224 F31.7683
G1 X-0.4048 Y-0.1112 F31.7683
G1 X-0.3958 Y-0.0797 F31.7683
G1 X-0.3900 Y-0.0443 F31.7683
G1 X-0.3890 Y-0.0285 F31.7683
G1 X-0.3888 Y-0.0128 F31.7683
G1 X-0.3895 Y0.0028 F31.7683
G1 X-0.3907 Y0.0185 F31.7683
G1 X-0.3926 Y0.0341 F31.7683
G1 X-0.3949 Y0.0496 F31.7683
G1 X-0.3980 Y0.0650 F31.7683
G1 X-0.4016 Y0.0802 F31.7683
G1 X-0.4058 Y0.0953 F31.7683
G1 X-0.4106 Y0.1102 F31.7683
G1 X-0.4166 Y0.1246 F31.7683
G1 X-0.4229 Y0.1387 F31.7683
G1 X-0.4300 Y0.1526 F31.7683
G1 X-0.4380 Y0.1660 F31.7683
G1 X-0.4465 Y0.1791 F31.7683
G1 X-0.4563 Y0.1913 F31.7683
G1 X-0.4652 Y0.2015 F31.7683
G1 X-0.4761 Y0.2127 F31.7683
G1 X-0.4879 Y0.2231 F31.7683
G1 X-0.5038 Y0.2338 F31.7683
G1 X-0.5210 Y0.2415 F31.7683
G1 X-0.5284 Y0.2436 F31.7683
G1 X-0.5340 Y0.2437 F31.7683
G1 X-0.5432 Y0.2419 F31.7683
G1 X-0.5768 Y0.2190 F31.7683
G1 X-0.5768 Y0.2190 F31.7683
G1 X-0.5826 Y0.2142 F31.7683
G1 X-0.5851 Y0.2115 F31.7683
G1 X-0.5875 Y0.2085 F31.7683
G1 X-0.5894 Y0.2053 F31.7683
G1 X-0.5910 Y0.2021 F31.7683
G1 X-0.5920 Y0.1987 F31.7683
G0 X-0.5923 Y0.1953
G0 X-0.5918 Y0.1917
G0 X-0.5898 Y0.1848
G0 X-0.4555 Y-0.1299
G1 X-0.4536 Y-0.1342 F31.7683
G1 X-0.4504 Y-0.1417 F31.7683
G1 X-0.4488 Y-0.1449 F31.7683
G1 X-0.4467 Y-0.1475 F31.7683
G1 X-0.4443 Y-0.1491 F31.7683
G1 X-0.4414 Y-0.1500 F31.7683
G1 X-0.4382 Y-0.1499 F31.7683
G1 X-0.4348 Y-0.1492 F31.7683
G1 X-0.4312 Y-0.1479 F31.7683
G1 X-0.4274 Y-0.1459 F31.7683
G1 X-0.4192 Y-0.1405 F31.7683
G1 X-0.4192 Y-0.1405 F31.7683
G1 X-0.3761 Y-0.0955 F31.7683
G1 X-0.3644 Y-0.0786 F31.7683
G1 X-0.3591 Y-0.0675 F31.7683
G1 X-0.3483 Y-0.0242 F31.7683
G1 X-0.3456 Y-0.0006 F31.7683
G1 X-0.3449 Y0.0150 F31.7683
G1 X-0.3450 Y0.0306 F31.7683
G1 X-0.3460 Y0.0463 F31.7683
G1 X-0.3481 Y0.0618 F31.7683
G1 X-0.3506 Y0.0769 F31.7683
G1 X-0.3538 Y0.0923 F31.7683
G1 X-0.3580 Y0.1074 F31.7683
G1 X-0.3628 Y0.1223 F31.7683
G1 X-0.3682 Y0.1369 F31.7683
G1 X-0.3744 Y0.1513 F31.7683
G1 X-0.3812 Y0.1655 F31.7683
G1 X-0.3887 Y0.1793 F31.7683
G1 X-0.3968 Y0.1927 F31.7683
G1 X-0.4055 Y0.2057 F31.7683
G1 X-0.4156 Y0.2178 F31.7683
G1 X-0.4243 Y0.2276 F31.7683
G1 X-0.4355 Y0.2386 F31.7683
G1 X-0.4475 Y0.2488 F31.7683
G1 X-0.4619 Y0.2584 F31.7683
G1 X-0.4843 Y0.2681 F31.7683
G1 X-0.4972 Y0.2709 F31.7683
G1 X-0.5027 Y0.2705 F31.7683
G1 X-0.5119 Y0.2680 F31.7683
G1 X-0.5408 Y0.2438 F31.7683
G1 X-0.5408 Y0.2438 F31.7683
G1 X-0.5464 Y0.2387 F31.7683
G1 X-0.5488 Y0.2359 F31.7683
G1 X-0.5511 Y0.2328 F31.7683
G1 X-0.5529 Y0.2296 F31.7683
G1 X-0.5543 Y0.2263 F31.7683
G1 X-0.5551 Y0.2228 F31.7683
G0 X-0.5551 Y0.2194
G0 X-0.5545 Y0.2159
G0 X-0.5522 Y0.2090
G0 X-0.4083 Y-0.0837
G1 X-0.4064 Y-0.0878 F31.7683
G1 X-0.4028 Y-0.0950 F31.7683
G1 X-0.4010 Y-0.0981 F31.7683
G1 X-0.3987 Y-0.1006 F31.7683
G1 X-0.3963 Y-0.1022 F31.7683
G1 X-0.3932 Y-0.1030 F31.7683
G1 X-0.3900 Y-0.1029 F31.7683
G1 X-0.3867 Y-0.1021 F31.7683
G1 X-0.3831 Y-0.1006 F31.7683
G1 X-0.3794 Y-0.0985 F31.7683
G1 X-0.3714 Y-0.0928 F31.7683
G1 X-0.3714 Y-0.0928 F31.7683
G1 X-0.3353 Y-0.0555 F31.7683
G1 X-0.3210 Y-0.0357 F31.7683
G1 X-0.3163 Y-0.0265 F31.7683
G1 X-0.3051 Y0.0194 F31.7683
G1 X-0.3025 Y0.0434 F31.7683
G1 X-0.3024 Y0.0591 F31.7683
G1 X-0.3035 Y0.0747 F31.7683
G1 X-0.3055 Y0.0902 F31.7683
G1 X-0.3084 Y0.1056 F31.7683
G1 X-0.3121 Y0.1208 F31.7683
G1 X-0.3163 Y0.1359 F31.7683
G1 X-0.3211 Y0.1508 F31.7683
G1 X-0.3266 Y0.1655 F31.7683
G1 X-0.3328 Y0.1799 F31.7683
G1 X-0.3396 Y0.1940 F31.7683
G1 X-0.3476 Y0.2076 F31.7683
G1 X-0.3556 Y0.2203 F31.7683
G1 X-0.3647 Y0.2331 F31.7683
G1 X-0.3745 Y0.2453 F31.7683
G1 X-0.3856 Y0.2564 F31.7683
G1 X-0.3946 Y0.2648 F31.7683
G1 X-0.4067 Y0.2746 F31.7683
G1 X-0.4189 Y0.2830 F31.7683
G1 X-0.4365 Y0.2920 F31.7683
G1 X-0.4546 Y0.2979 F31.7683
G1 X-0.4675 Y0.3001 F31.7683
G1 X-0.4731 Y0.2995 F31.7683
G1 X-0.4822 Y0.2963 F31.7683
G1 X-0.5074 Y0.2720 F31.7683
G1 X-0.5074 Y0.2720 F31.7683
G1 X-0.5123 Y0.2662 F31.7683
G1 X-0.5145 Y0.2632 F31.7683
G1 X-0.5165 Y0.2600 F31.7683
G1 X-0.5180 Y0.2565 F31.7683
G1 X-0.5191 Y0.2531 F31.7683
G1 X-0.5196 Y0.2495 F31.7683
G0 X-0.5193 Y0.2461
G0 X-0.5186 Y0.2426
G0 X-0.5159 Y0.2359
G0 X-0.3672 Y-0.0410
G1 X-0.3650 Y-0.0450 F31.7683
G1 X-0.3612 Y-0.0520 F31.7683
G1 X-0.3593 Y-0.0551 F31.7683
G1 X-0.3570 Y-0.0576 F31.7683
G1 X-0.3543 Y-0.0592 F31.7683
G1 X-0.3514 Y-0.0599 F31.7683
G1 X-0.3481 Y-0.0599 F31.7683
G1 X-0.3446 Y-0.0592 F31.7683
G1 X-0.3410 Y-0.0578 F31.7683
G1 X-0.3372 Y-0.0559 F31.7683
G1 X-0.3290 Y-0.0504 F31.7683
G1 X-0.3290 Y-0.0504 F31.7683
G1 X-0.2916 Y-0.0117 F31.7683
G1 X-0.2776 Y0.0076 F31.7683
G1 X-0.2724 Y0.0180 F31.7683
G1 X-0.2646 Y0.0493 F31.7683
G1 X-0.2616 Y0.0789 F31.7683
G1 X-0.2624 Y0.0945 F31.7683
G1 X-0.2640 Y0.1101 F31.7683
G1 X-0.2664 Y0.1256 F31.7683
G1 X-0.2694 Y0.1410 F31.7683
G1 X-0.2734 Y0.1561 F31.7683
G1 X-0.2779 Y0.1711 F31.7683
G1 X-0.2832 Y0.1859 F31.7683
G1 X-0.2892 Y0.2003 F31.7683
G1 X-0.2960 Y0.2144 F31.7683
G1 X-0.3035 Y0.2282 F31.7683
G1 X-0.3116 Y0.2416 F31.7683
G1 X-0.3204 Y0.2546 F31.7683
G1 X-0.3303 Y0.2666 F31.7683
G1 X-0.3391 Y0.2765 F31.7683
G1 X-0.3503 Y0.2874 F31.7683
G1 X-0.3622 Y0.2976 F31.7683
G1 X-0.3744 Y0.3070 F31.7683
G1 X-0.3878 Y0.3151 F31.7683
G1 X-0.3978 Y0.3205 F31.7683
G1 X-0.4125 Y0.3263 F31.7683
